!!!!SEGMENT: pl-cz--iii-696--004_volckmer-augustin--missa-in-es-et-incarnatus.krn
!!!cenid: 17xx:1201
!!!COM: Volckmer, Augustin
!!!COM-rismID: pe30020656
!!!CDT: 1755-~1820
!!!CNT:
!!!OPR: Missa in Es
!!!OTL: Et incarnatus
!!!OMV: 004
!!!PDT:
!!!AGN: Sacred; Mass
!!!SMS-siglum: PL-CZ
!!!SMS-shelfmark: III-696
!!!SMS-shelfwork: 001-004 M
!!!SMS-variant:
!!!SMS-altvar:
!!!NIFC-rismSourceID: 300001398
!!!NIFC-rismChildID: 300001398
!!!NIFC-islandoraID: pl-cz:40545
!!!URL-pdf-islandora: https://repozytorium.nifc.pl/islandora/object/pl-cz%3A40545/datastream/PDF/view
!!!URL-scan:
!!!ONB-nifc: UWAGA: części Mszy: Kyrie, Gloria, Credo, Et incarnatus, Et resurrexit, Sanctus, Pleni sunt, Benedictus, Agnus Dei, Dona nobis
!!!AIN: 1 alto 1 bass 2 cor 2 fagot 2 oboe 1 organ 1 soprn 1 tenor 1 timpa 1 viola 2 violn
!!!key:
**kern	**fba	**dynam	**kern	**dynam	**kern	**dynam	**kern	**dynam	**kern	**text	**dynam	**kern	**text	**dynam	**kern	**text	**dynam	**kern	**text	**dynam	**kern	**kern	**dynam	**kern	**dynam	**kern	**kern	**dynam	**kern	**dynam	**kern	**dynam
*	*	*	*group5	*	*group5	*	*group5	*	*group4	*	*	*group4	*	*	*group4	*	*	*group4	*	*	*	*group3	*	*group3	*	*group2	*group2	*	*group1	*	*group1	*
*part15	*part15	*part15	*part14	*part14	*part13	*part13	*part12	*part12	*part11	*part11	*part11	*part10	*part10	*part10	*part9	*part9	*part9	*part8	*part8	*part8	*part7	*part6	*part6	*part5	*part5	*part4	*part3	*part3	*part2	*part2	*part1	*part1
*staff15	*	*	*staff14	*	*staff13	*	*staff12	*	*staff11	*staff11	*	*staff10	*staff10	*	*staff9	*staff9	*	*staff8	*staff8	*	*staff7	*staff6	*	*staff5	*	*staff4	*staff3	*	*staff2	*	*staff1	*
*IGcont	*	*	*IGacmp	*	*IGacmp	*	*IGacmp	*	*IGcoro	*	*	*IGcoro	*	*	*IGcoro	*	*	*IGcoro	*	*	*IGacmp	*IGacmp	*	*IGacmp	*	*IGacmp	*IGacmp	*	*IGacmp	*	*IGacmp	*
*ICklav	*	*	*ICstr	*	*ICstr	*	*ICstr	*	*ICvox	*	*	*ICvox	*	*	*ICvox	*	*	*ICvox	*	*	*ICidio	*ICbras	*	*ICbras	*	*ICww	*ICww	*	*ICww	*	*ICww	*
*Iorgan	*	*	*Iviola	*	*Ivioln	*	*Ivioln	*	*Ibass	*	*	*Itenor	*	*	*Ialto	*	*	*Isoprn	*	*	*Itimpa	*Icor	*	*Icor	*	*Ifagot	*Ifagot	*	*Ioboe	*	*Ioboe	*
*I"Organo.	*	*	*I"Viola: obg	*	*I"Violino. Secundo.	*	*I"Violino Primo.	*	*I"Baſſo.	*	*	*I"Tenore.	*	*	*I"Alto:	*	*	*I"Canto.	*	*	*I"Tympano do Es. B.	*I"Corno Secundo. in Dis	*	*I"Corno Primo. in Dis	*	*I"	*I"Fagotto Primo. ê Secundo.	*	*I"Huba. Secundo.	*	*I"Huba Primo	*
*I'org	*	*	*I'vla	*	*I'vl 2	*	*I'vl 1	*	*I'B	*	*	*I'T	*	*	*I'A	*	*	*I'S	*	*	*I'timp	*I'cor 2 in Es	*	*I'cor 1 in Es	*	*I'fag 2	*I'fag 1	*	*I'ob 2	*	*I'ob 1	*
*clefF4	*	*	*clefC3	*	*clefG2	*	*clefG2	*	*clefF4	*	*	*clefC4	*	*	*clefC3	*	*	*clefC1	*	*	*clefF4	*clefG2	*	*clefG2	*	*clefF4	*clefF4	*	*clefG2	*	*clefG2	*
*	*	*	*	*	*	*	*	*	*	*	*	*	*	*	*	*	*	*	*	*	*	*ITrd5c9	*	*ITrd5c9	*	*	*	*	*	*	*	*
*	*	*	*	*	*	*	*	*	*	*	*	*	*	*	*	*	*	*	*	*	*	*ITrd-2c-3	*	*ITrd-2c-3	*	*	*	*	*	*	*	*
*k[e-b-a-3d-]	*	*	*k[b-e-a-d-]	*	*k[b-e-a-d-]	*	*k[b-e-a-d-]	*	*k[b-d-a-3e-]	*	*	*k[a-d-b-e-]	*	*	*k[a-e-b-d-]	*	*	*k[e-b-d-3a-]	*	*	*k[b-e-a-d-]	*k[b-e-a-d-]	*	*k[b-e-a-]	*	*k[e-b-a-3d-]	*k[e-b-a-3d-]	*	*k[b-e-a-d-]	*	*k[b-e-a-d-]	*
*A-:	*	*	*A-:	*	*A-:	*	*A-:	*	*A-:	*	*	*A-:	*	*	*A-:	*	*	*A-:	*	*	*A-:	*A-:	*	*A-:	*	*A-:	*A-:	*	*A-:	*	*A-:	*
*M3/2	*	*	*M3/2	*	*M3/2	*	*M3/2	*	*M3/2	*	*	*M3/2	*	*	*M3/2	*	*	*M3/2	*	*	*M3/2	*M3/2	*	*M3/2	*	*M3/2	*M3/2	*	*M3/2	*	*M3/2	*
*2\right	*	*	*2\right	*	*2\right	*	*2\right	*	*2\right	*	*	*2\right	*	*	*2\right	*	*	*2\right	*	*	*	*2\right	*	*2\right	*	*2\right	*2\right	*	*2\right	*	*2\right	*
=1	=1	=1	=1	=1	=1	=1	=1	=1	=1	=1	=1	=1	=1	=1	=1	=1	=1	=1	=1	=1	=1	=1	=1	=1	=1	=1	=1	=1	=1	=1	=1	=1
*	*	*	*	*	*^	*	*^	*	*	*	*	*	*	*	*	*	*	*	*	*	*	*	*	*	*	*	*	*	*	*	*	*
*	*	*	*	*	*cue	*	*	*cue	*	*	*	*	*	*	*	*	*	*	*	*	*	*	*	*	*	*	*	*	*	*	*	*	*	*
!	!	!	!	!	!	!	!	!	!	!	!	!	!	!LO:TX:t=P:problem:głos zapisany na skanie nr 010	!	!	!LO:TX:t=P:problem:głos zapisany w źródle na skanie nr 011	!	!	!	!	!	!	!	!	!	!	!	!	!	!	!	!LO:TX:b:t=Dolce:color=red	!
!	!	!	!	!	!	!	!	!	!	!	!LO:TX:b:t=Dolce:color=red	!	!	!	!	!	!	!	!	!LO:TX:b:t=Dolce:color=red	!	!	!	!	!	!	!	!	!	!	!	!	!	!
!LO:TX:b:t=Tutti	!	!	!LO:TX:a:t=4	!	!	!	!	!LO:TX:b:t=oboi Solo	!	!	!	!	!	!LO:TX:b:t=Dolce:color=red	!	!	!LO:TX:b:t=Dolce:color=red	!	!	!	!	!	!	!LO:TX:a:t=13	!	!LO:TX:a:t=13	!	!	!LO:TX:a:t=adagio	!	!LO:TX:b:t=Dolce:color=red	!	!LO:TX:a:t=Solo	!
!LO:TX:a:t=Adagio	!	!	!LO:TX:a:t=Adagio	!	!LO:TX:b:t=1	!	!	!LO:TX:a:t=Adagio. per expressivo	!	!	!LO:TX:a:t=Adagio	!	!	!LO:TX:a:t=Adagio	!	!	!LO:TX:a:t=adagio:rj	!	!	!LO:TX:a:t=Adagio	!	!	!LO:TX:a:t=Et in Carnatus Tacet	!LO:TX:a:t=Adagio	!	!LO:TX:a:t=Adagio	!	!LO:TX:b:t=Solo:color=red	!LO:TX:b:t=Dolce:color=red	!	!LO:TX:a:t=adagio	!	!LO:TX:a:t=adagio:rj	!
2A-\	5 3	.	00.r	.	2cc/	1.r	.	2ee-/	1.r	.	2A-\	Et	.	2e-\	Et	.	2cc\	Et	.	2ee-\	Et	.	1.ryy	00.r	.	00.r	.	2A-\	2e-\	.	2cc\	.	2ee-\	.
2c\	.	.	.	.	2cc/	.	.	2ee-/	.	.	2c\	in	.	2e-\	in	.	2cc\	in	.	2ee-\	in	.	.	.	.	.	.	2c\	2e-\	.	2cc\	.	2ee-\	.
!	!	!LO:DY:b:color=red:t=piano	!	!	!	!	!	!	!	!	!	!	!	!LO:TX:a:t=B:color=red	!	!	!	!	!	!	!	!	!	!	!	!	!	!	!	!	!	!	!	!
2A-\	_ _	p	.	.	4a-/	.	.	(<4cc/	.	.	2A-\	Car-	.	2e-\	Car-	.	(4g\	Car-	.	(4cc\	Car-	.	.	.	.	.	.	2A-\	4c\	.	(4a-\	.	(4cc\	.
.	x x	.	.	.	4cc/	.	.	4ee-/)	.	.	.	.	.	.	.	.	4cc\)	.	.	4ee-\)	.	.	.	.	.	.	.	.	4e-\	.	4cc\)	.	4ee-\)	.
=2	=2	=2	=2	=2	=2	=2	=2	=2	=2	=2	=2	=2	=2	=2	=2	=2	=2	=2	=2	=2	=2	=2	=2	=2	=2	=2	=2	=2	=2	=2	=2	=2	=2	=2
!	!	!	!	!	!LO:TX:b:t=2	!	!	!LO:TX:b:t=2	!	!	!	!	!	!	!	!	!	!	!	!	!	!	!	!	!	!	!	!	!	!	!	!	!	!
.	.	.	.	.	.	.	.	16qqee-/	.	.	.	.	.	.	.	.	.	.	.	8qqee-/	.	.	.	.	.	.	.	.	16qqe-/	.	.	.	16qqee-/	.
2G\	5 3	.	.	.	2.b-/	1.r	.	2.dd-/	1.r	.	(2G\	-na-	.	2.e-\	-na-	.	2.b-\	-na-	.	2.dd-\	-na-	.	1.ryy	.	.	.	.	2G\	2.d-\	.	2.b-\	.	2.dd-\	.
2E-\	.	.	.	.	.	.	.	.	.	.	4E-\)	.	.	.	.	.	.	.	.	.	.	.	.	.	.	.	.	2E-\	.	.	.	.	.	.
.	.	.	.	.	4b-/	.	.	4dd-/	.	.	4E-\|>	-tus	.	4e-\	-tus	.	4b-\	-tus	.	4dd-\	-tus	.	.	.	.	.	.	.	4d-\	.	4b-\	.	4dd-\	.
2A-\	x 3	.	.	.	4b-/	.	.	(<4dd-/	.	.	2A-\	est	.	2e-\	est	.	(4b-\	est	.	(4dd-\	est	.	.	.	.	.	.	2A-\	4d-\	.	(4b-\	.	(4dd-\	.
.	.	.	.	.	4a-/	.	.	4cc/)	.	.	.	.	.	.	.	.	4a-\)	.	.	4cc\)	.	.	.	.	.	.	.	.	4c\	.	4a-\)	.	4cc\)	.
=3	=3	=3	=3	=3	=3	=3	=3	=3	=3	=3	=3	=3	=3	=3	=3	=3	=3	=3	=3	=3	=3	=3	=3	=3	=3	=3	=3	=3	=3	=3	=3	=3	=3	=3
!	!	!	!	!	!LO:TX:a:t=3	!	!	!LO:TX:b:t=3	!	!	!	!	!	!	!	!	!	!	!	!	!	!	!	!	!	!	!	!	!	!	!	!	!	!
2D-/	x 3	.	.	.	4a-\	1.rdd	.	4cc/	1.r	.	2D-\	De	.	(4c\	De	.	(4a-\	De	.	(4cc\	De	.	1.ryy	.	.	.	.	2D-/	4c\	.	4a-/	.	(4cc\	.
.	.	.	.	.	4g\	.	.	4b-/	.	.	.	.	.	4B-\)	.	.	4g\)	.	.	4b-\)	.	.	.	.	.	.	.	.	4B-\	.	4g/	.	4b-\)	.
2BB-/	.	.	.	.	2f\	.	.	(<4ee-/	.	.	2BB-/	Spi-	.	(4e-\	spi-	.	2f\	spi-	.	(4ee-\	Spi-	.	.	.	.	.	.	2BB-/	4e-\	.	2f/	.	(4ee-\	.
.	.	.	.	.	.	.	.	4dd-/	.	.	.	.	.	4d-\)	.	.	.	.	.	4dd-\)	.	.	.	.	.	.	.	.	4d-\	.	.	.	4dd-\	.
2D-/	.	.	.	.	4e-\	.	.	4cc/	.	.	4D-\	-ri-	.	4c'\	-ri-	.	4e-\	-ri-	.	4cc\|>	-ri-	.	.	.	.	.	.	2D-/	4c\	.	4f/	.	4cc\)	.
.	.	.	.	.	4d-X\	.	.	4b-/)	.	.	4D-\	-tu	.	4d-'\	-tu	.	4d-\	-tu	.	4b-\|>	-tu	.	.	.	.	.	.	.	4B-\	.	4e-/	.	4ryy	.
=4	=4	=4	=4	=4	=4	=4	=4	=4	=4	=4	=4	=4	=4	=4	=4	=4	=4	=4	=4	=4	=4	=4	=4	=4	=4	=4	=4	=4	=4	=4	=4	=4	=4	=4
!	!	!	!	!	!LO:TX:a:t=4	!	!	!LO:TX:b:t=4	!	!	!	!	!	!	!	!	!	!	!	!	!	!	!	!	!	!	!	!	!	!	!	!	!LO:LB:g=original	!
.	.	.	.	.	.	.	.	.	.	.	.	.	.	.	.	.	.	.	.	8qqa-/	.	.	.	.	.	.	.	16qqD-/	.	.	.	.	8qqa-/	.
2E-\	x 3	.	.	.	2B-\	1.rdd	.	2g/	1.r	.	2E-\	San-	.	2e-\	San-	.	2B-/	San-	.	2g\	San-	.	1.ryy	.	.	.	.	2E-\	2G\	.	2e-/	.	2g/	.
2A-\	x 3	.	.	.	2c\	.	.	2a-/	.	.	2AA-/	-cto	.	2e-\	-cto	.	2c/	-cto	.	2a-\	-cto	.	.	.	.	.	.	2AA-/	2A-\	.	2e-/	.	2a-/	.
2r	.	.	.	.	2rf	.	.	2r	.	.	2r	.	.	2r	.	.	2r	.	.	2r	.	.	.	.	.	.	.	2r	2r	.	2r	.	2r	.
*	*	*	*	*	*v	*v	*	*	*	*	*	*	*	*	*	*	*	*	*	*	*	*	*	*	*	*	*	*	*	*	*	*	*	*
*	*	*	*	*	*	*	*v	*v	*	*	*	*	*	*	*	*	*	*	*	*	*	*	*	*	*	*	*	*	*	*	*	*	*
=5	=5	=5	=5	=5	=5	=5	=5	=5	=5	=5	=5	=5	=5	=5	=5	=5	=5	=5	=5	=5	=5	=5	=5	=5	=5	=5	=5	=5	=5	=5	=5	=5
*	*	*	*	*	*Xcue	*	*Xcue	*	*	*	*	*	*	*	*	*	*	*	*	*	*	*	*	*	*	*	*	*	*	*	*	*
!LO:TX:a:t=5	!	!	!	!LO:DY:b:color=red:t=piano	!LO:TX:a:t=Dolce:color=red	!LO:DY:b:color=red:t=piano	!LO:TX:a:t=Dolce:color=red	!LO:DY:b:color=red:t=piano:rj	!LO:TX:a:t=5	!	!	!LO:TX:a:t=5	!	!	!LO:TX:a:t=5	!	!	!LO:TX:a:t=5	!	!	!	!	!	!	!	!	!LO:TX:a:t=5	!	!LO:TX:a:t=5	!	!LO:TX:a:t=5	!
00.r	.	.	2A-/	p	2c/	p	(4e-/	p	00.r	.	.	00.r	.	.	00.r	.	.	00.r	.	.	1.ryy	00.r	.	00.r	.	00.r	00.r	.	00.r	.	00.r	.
.	.	.	.	.	.	.	4c/)	.	.	.	.	.	.	.	.	.	.	.	.	.	.	.	.	.	.	.	.	.	.	.	.	.
.	.	.	2A-/	.	2c/	.	(4a-/	.	.	.	.	.	.	.	.	.	.	.	.	.	.	.	.	.	.	.	.	.	.	.	.	.
.	.	.	.	.	.	.	4e-/)	.	.	.	.	.	.	.	.	.	.	.	.	.	.	.	.	.	.	.	.	.	.	.	.	.
.	.	.	2A-/	.	2c/	.	(4cc\	.	.	.	.	.	.	.	.	.	.	.	.	.	.	.	.	.	.	.	.	.	.	.	.	.
.	.	.	.	.	.	.	4a-\)	.	.	.	.	.	.	.	.	.	.	.	.	.	.	.	.	.	.	.	.	.	.	.	.	.
=6	=6	=6	=6	=6	=6	=6	=6	=6	=6	=6	=6	=6	=6	=6	=6	=6	=6	=6	=6	=6	=6	=6	=6	=6	=6	=6	=6	=6	=6	=6	=6	=6
.	.	.	.	.	.	.	16qqg-X/	.	.	.	.	.	.	.	.	.	.	.	.	.	.	.	.	.	.	.	.	.	.	.	.	.
.	.	.	2A-/	.	2d-/	.	(4f/	.	.	.	.	.	.	.	.	.	.	.	.	.	1.ryy	.	.	.	.	.	.	.	.	.	.	.
.	.	.	.	.	.	.	4c/)	.	.	.	.	.	.	.	.	.	.	.	.	.	.	.	.	.	.	.	.	.	.	.	.	.
.	.	.	2A-/	.	2d-/	.	(4a-/	.	.	.	.	.	.	.	.	.	.	.	.	.	.	.	.	.	.	.	.	.	.	.	.	.
.	.	.	.	.	.	.	4f/)	.	.	.	.	.	.	.	.	.	.	.	.	.	.	.	.	.	.	.	.	.	.	.	.	.
.	.	.	2A-/	.	2d-/	.	(4dd-\	.	.	.	.	.	.	.	.	.	.	.	.	.	.	.	.	.	.	.	.	.	.	.	.	.
.	.	.	.	.	.	.	4b-\)	.	.	.	.	.	.	.	.	.	.	.	.	.	.	.	.	.	.	.	.	.	.	.	.	.
=7	=7	=7	=7	=7	=7	=7	=7	=7	=7	=7	=7	=7	=7	=7	=7	=7	=7	=7	=7	=7	=7	=7	=7	=7	=7	=7	=7	=7	=7	=7	=7	=7
!	!	!	!	!	!	!	!LO:PB:g=original	!	!	!	!	!	!	!	!	!	!	!	!	!	!	!	!	!	!	!	!	!	!	!	!	!
.	.	.	2B-/	.	2d-/	.	(4a-/	.	.	.	.	.	.	.	.	.	.	.	.	.	1.ryy	.	.	.	.	.	.	.	.	.	.	.
.	.	.	.	.	.	.	2g/)	.	.	.	.	.	.	.	.	.	.	.	.	.	.	.	.	.	.	.	.	.	.	.	.	.
.	.	.	2B-/	.	2d-/	.	.	.	.	.	.	.	.	.	.	.	.	.	.	.	.	.	.	.	.	.	.	.	.	.	.	.
.	.	.	.	.	.	.	4ff\|>	.	.	.	.	.	.	.	.	.	.	.	.	.	.	.	.	.	.	.	.	.	.	.	.	.
.	.	.	2B-/	.	2d-/	.	4ee-\|>	.	.	.	.	.	.	.	.	.	.	.	.	.	.	.	.	.	.	.	.	.	.	.	.	.
.	.	.	.	.	.	.	4gn/	.	.	.	.	.	.	.	.	.	.	.	.	.	.	.	.	.	.	.	.	.	.	.	.	.
=8	=8	=8	=8	=8	=8	=8	=8	=8	=8	=8	=8	=8	=8	=8	=8	=8	=8	=8	=8	=8	=8	=8	=8	=8	=8	=8	=8	=8	=8	=8	=8	=8
.	.	.	.	.	.	.	(8qqb-/	.	.	.	.	.	.	.	.	.	.	.	.	.	.	.	.	.	.	.	.	.	.	.	.	.
*	*	*	*^	*	*	*	*	*	*	*	*	*	*	*	*	*	*	*	*	*	*	*	*	*	*	*	*	*	*	*	*	*
.	.	.	2e-/	2A-\	.	2c/	.	2a-/)	.	.	.	.	.	.	.	.	.	.	.	.	.	1.ryy	.	.	.	.	.	.	.	.	.	.	.
.	.	.	.	.	.	.	.	(8qqb-/	.	.	.	.	.	.	.	.	.	.	.	.	.	.	.	.	.	.	.	.	.	.	.	.	.
.	.	.	2e-/	2A-\	.	2c/	.	2a-/)	.	.	.	.	.	.	.	.	.	.	.	.	.	.	.	.	.	.	.	.	.	.	.	.	.
.	.	.	.	.	.	.	.	(8qqb-/	.	.	.	.	.	.	.	.	.	.	.	.	.	.	.	.	.	.	.	.	.	.	.	.	.
.	.	.	2e-/	2A-\	.	2c/	.	2a-/)	.	.	.	.	.	.	.	.	.	.	.	.	.	.	.	.	.	.	.	.	.	.	.	.	.
=9	=9	=9	=9	=9	=9	=9	=9	=9	=9	=9	=9	=9	=9	=9	=9	=9	=9	=9	=9	=9	=9	=9	=9	=9	=9	=9	=9	=9	=9	=9	=9	=9	=9
.	.	.	.	.	.	.	.	4qqb-/	.	.	.	.	.	.	.	.	.	.	.	.	.	.	.	.	.	.	.	.	.	.	.	.	.
1.r	.	.	1e-	1A-	.	1c	.	1a-	.	1.r	.	.	1.r	.	.	1.r	.	.	1.r	.	.	1.ryy	00.r	.	00.r	.	1.r	1.r	.	1.r	.	1.r	.
!	!	!	!LO:LB:g=original	!	!	!	!	!	!	!	!	!	!	!	!	!	!	!	!	!	!	!	!	!	!	!	!	!	!	!	!	!	!
.	.	.	2r	2ryy	.	2r	.	2r	.	.	.	.	.	.	.	.	.	.	.	.	.	.	.	.	.	.	.	.	.	.	.	.	.
*	*	*	*v	*v	*	*	*	*	*	*	*	*	*	*	*	*	*	*	*	*	*	*	*	*	*	*	*	*	*	*	*	*	*
=10	=10	=10	=10	=10	=10	=10	=10	=10	=10	=10	=10	=10	=10	=10	=10	=10	=10	=10	=10	=10	=10	=10	=10	=10	=10	=10	=10	=10	=10	=10	=10	=10
*	*	*	*	*	*^	*	*^	*	*	*	*	*	*	*	*	*	*	*	*	*	*	*	*	*	*	*	*	*	*	*	*	*
*	*	*	*	*	*cue	*	*	*cue	*	*	*	*	*	*	*	*	*	*	*	*	*	*	*	*	*	*	*	*	*	*	*	*	*	*
!	!	!	!	!	!LO:PB:g=original	!	!	!	!	!	!	!	!	!	!	!	!	!	!	!	!	!	!	!	!	!	!	!LO:LB:g=original	!LO:LB:g=original	!	!	!	!	!
!	!	!	!	!	!LO:TX:b:t=1	!	!	!LO:TX:b:t=1	!	!	!	!	!	!LO:LB:g=original	!	!	!	!	!	!	!	!	!	!	!	!	!	!	!	!	!	!	!	!
!	!	!	!LO:TX:a:t=4	!	!LO:TX:a:t=oboi Solo	!	!	!LO:TX:a:t=oboi	!	!	!LO:TX:b:t=Dolce:color=red	!	!	!LO:TX:b:t=Dolce:color=red	!	!	!LO:TX:b:t=Dolce:color=red	!	!	!LO:TX:b:t=Dolce:color=red	!	!	!	!	!	!	!	!	!LO:TX:b:t=Dolce:color=red	!	!	!	!	!
2A-\	.	.	00.r	.	2cc/	1.r	.	2ee-/	1.r	.	2A-\	Et	.	2e-\	Et	.	2cc\	Et	.	2ee-\	Et	.	1.ryy	.	.	.	.	2AA-/	2e-\	.	2cc\	.	2ee-\	.
2c\	.	.	.	.	2cc/	.	.	2ee-/	.	.	2c\	in	.	2e-\	in-	.	2cc\	in-	.	2ee-\	in	.	.	.	.	.	.	2C/	2e-\	.	2cc\	.	2ee-\	.
!	!	!	!	!	!	!	!	!	!	!	!	!	!	!	!	!	!	!	!	!LO:LB:g=original	!	!	!	!	!	!	!	!	!	!	!	!	!	!
2A-\	.	.	.	.	(<4a-/	.	.	(<4cc/	.	.	2A-\	Car-	.	2e-\	-Car-	.	(4a-\	-Car-	.	(4cc\	car-	.	.	.	.	.	.	2AA-/	4c\	.	(4a-\	.	(4cc\	.
.	.	.	.	.	4cc/)	.	.	4ee-/)	.	.	.	.	.	.	.	.	4cc\)	.	.	4ee-\)	.	.	.	.	.	.	.	.	4e-\	.	4cc\)	.	4ee-\)	.
=11	=11	=11	=11	=11	=11	=11	=11	=11	=11	=11	=11	=11	=11	=11	=11	=11	=11	=11	=11	=11	=11	=11	=11	=11	=11	=11	=11	=11	=11	=11	=11	=11	=11	=11
!	!	!	!	!	!LO:TX:b:t=2	!	!	!LO:TX:b:t=2	!	!	!	!	!	!	!	!	!	!	!	!	!	!	!	!	!	!	!	!	!	!	!	!	!	!
.	.	.	.	.	8qqcc/	.	.	8qqee-	.	.	.	.	.	.	.	.	16qqcc/	.	.	8qqee-/	.	.	.	.	.	.	.	.	.	.	.	.	8qqee-/	.
2G\	.	.	.	.	2.b-/	1.r	.	2.dd-/	1.r	.	(2G\	-na-	.	2.e-\	-na-	.	2.b-\	-na-	.	2.dd-\	-na-	.	1.ryy	.	.	.	.	2GG/	2.d-\	.	2.b-\	.	2.dd-\	.
2E-\	.	.	.	.	.	.	.	.	.	.	4E-\)	.	.	.	.	.	.	.	.	.	.	.	.	.	.	.	.	2EE-/	.	.	.	.	.	.
!	!	!	!	!	!	!	!	!	!	!	!LO:LB:g=original	!	!	!	!	!	!	!	!	!	!	!	!	!	!	!	!	!	!	!	!	!	!	!
.	.	.	.	.	4b-/	.	.	4dd-/	.	.	4E-\	-tus	.	4e-\	-tus	.	4b-\	-tus	.	4dd-\	-tus	.	.	.	.	.	.	.	4d-\	.	4b-\	.	4dd-\	.
2A-\	.	.	.	.	(<4b-/	.	.	(<4dd-/	.	.	2A-\	est	.	2e-\	est	.	(4b-\	est	.	(4dd-\	est	.	.	.	.	.	.	2AA-/	4d-\	.	(4b-\	.	(4dd-\	.
.	.	.	.	.	4a-/)	.	.	4cc/)	.	.	.	.	.	.	.	.	4a-\)	.	.	4cc\)	.	.	.	.	.	.	.	.	4c\	.	4a-\)	.	4cc\)	.
=12	=12	=12	=12	=12	=12	=12	=12	=12	=12	=12	=12	=12	=12	=12	=12	=12	=12	=12	=12	=12	=12	=12	=12	=12	=12	=12	=12	=12	=12	=12	=12	=12	=12	=12
!	!	!	!	!	!LO:TX:a:t=3	!	!	!LO:TX:b:t=3	!	!	!	!	!	!	!	!	!LO:LB:g=original	!	!	!	!	!	!	!	!	!	!	!	!	!	!	!	!	!
2D-/	.	.	.	.	(4d-\	1.rdd	.	(<4b-/	1.r	.	2D-/	De	.	2f\	De	.	(4d-\	De	.	(4b-\	De	.	1.ryy	.	.	.	.	2D-/	4d-\	.	2f/	.	(4b-\	.
.	.	.	.	.	4e-\	.	.	4cc/)	.	.	.	.	.	.	.	.	4e-\)	.	.	4cc\)	.	.	.	.	.	.	.	.	4e-\	.	.	.	4cc\)	.
2BB-/	.	.	.	.	4f\)	.	.	(<4dd-/	.	.	2BB-/	Spi-	.	2f\	Spi-	.	(4f\	Spi-	.	(4dd-\	Spi-	.	.	.	.	.	.	2BB-/	4f\	.	1f	.	4dd-\	.
.	.	.	.	.	4e-\	.	.	4cc/	.	.	.	.	.	.	.	.	4e-\)	.	.	4cc\)	.	.	.	.	.	.	.	.	4e-\	.	.	.	4cc\	.
2D-/	.	.	.	.	4d-\	.	.	4b-/	.	.	4D-/	-ri-	.	4f\	-ri-	.	4d-\	-ri-	.	4b-\	-ri-	.	.	.	.	.	.	2D-/	4d-\	.	.	.	4b-\	.
.	.	.	.	.	4c\	.	.	4a-/)	.	.	4D-/	-tu	.	4f\	-tu	.	4c\	-tu	.	4a-\	-tu	.	.	.	.	.	.	.	4c\	.	.	.	4a-\	.
=13	=13	=13	=13	=13	=13	=13	=13	=13	=13	=13	=13	=13	=13	=13	=13	=13	=13	=13	=13	=13	=13	=13	=13	=13	=13	=13	=13	=13	=13	=13	=13	=13	=13	=13
!LO:LB:g=original	!	!	!	!	!LO:TX:a:t=4	!	!	!LO:TX:b:t=4	!	!	!	!	!	!	!	!	!	!	!	!	!	!	!	!	!	!	!	!	!	!	!	!	!	!
2E-\	.	.	.	.	2c\	1.rdd	.	2a-/	1.r	.	2E-\	San-	.	2e-\	San-	.	2c/	San-	.	2a-\	San-	.	1.ryy	1.r	.	1.r	.	2E-\	2c\	.	2e-/	.	2a-/	.
2E-\	.	.	.	.	2B-\	.	.	2g/	.	.	2E-\	-cto	.	2e-\	-cto	.	2B-/	-ctó	.	2g\	-cto	.	.	.	.	.	.	2EE-/	2B-\	.	2e-/	.	2g/	.
2r	.	.	.	.	2rf	.	.	2r	.	.	2r	.	.	2r	.	.	2r	.	.	2r	.	.	.	.	.	.	.	2r	2r	.	2r	.	2r	.
*	*	*	*	*	*v	*v	*	*	*	*	*	*	*	*	*	*	*	*	*	*	*	*	*	*	*	*	*	*	*	*	*	*	*	*
*	*	*	*	*	*	*	*v	*v	*	*	*	*	*	*	*	*	*	*	*	*	*	*	*	*	*	*	*	*	*	*	*	*	*
=14	=14	=14	=14	=14	=14	=14	=14	=14	=14	=14	=14	=14	=14	=14	=14	=14	=14	=14	=14	=14	=14	=14	=14	=14	=14	=14	=14	=14	=14	=14	=14	=14
*	*	*	*	*	*Xcue	*	*Xcue	*	*	*	*	*	*	*	*	*	*	*	*	*	*	*	*	*	*	*	*	*	*	*	*	*
!	!	!LO:DY:b:color=red:t=mezzoforto	!	!LO:DY:b:color=red:t=mezzo forto	!	!LO:DY:a:color=red:t=mezzo forto	!	!LO:DY:b:color=red:t=mezzo forto	!	!	!LO:DY:b:color=red:t=fort	!	!	!LO:DY:a:color=red:t=fort	!	!	!LO:DY:b:color=red:t=fort	!	!	!LO:DY:b:color=red:t=fort	!	!	!LO:DY:a:color=red:t=mezzo forto	!	!LO:DY:b:color=red:t=mezzo forto	!	!	!LO:DY:b:color=red:t=fort	!	!LO:DY:b:color=red:t=mforto	!	!LO:DY:b:color=red:t=mezzo fort
2E-\	5 3	mf	(8B-\L	mf	(8g/L	mf	(8b-/L	mf	1E-	Ex	f	1B-	Ex	f	1g	Ex	f	1b-	Ex	f	1.ryy	2e-/	mf	2ee-\	mf	2E-\	2E-\	f	1g	mf	1b-	mf
.	.	.	8g\)	.	8e-/)	.	8g/)	.	.	.	.	.	.	.	.	.	.	.	.	.	.	.	.	.	.	.	.	.	.	.	.	.
.	.	.	8e-\|>	.	8g/|<	.	8b-/|<	.	.	.	.	.	.	.	.	.	.	.	.	.	.	.	.	.	.	.	.	.	.	.	.	.
.	.	.	8g\J|>	.	8B-/J|<	.	8e-/J|<	.	.	.	.	.	.	.	.	.	.	.	.	.	.	.	.	.	.	.	.	.	.	.	.	.
!	!	!	!LO:TX:t=P:problem:mixed beam	!	!	!	!	!	!	!	!	!	!	!	!	!	!	!	!	!	!	!	!	!	!	!	!	!	!	!	!	!
2G\	.	.	(8B-/L	.	(8g/L	.	(8b-/L	.	.	.	.	.	.	.	.	.	.	.	.	.	.	2r	.	2r	.	2G\	2G\	.	.	.	.	.
.	.	.	8g\)	.	8e-/)	.	8g/)	.	.	.	.	.	.	.	.	.	.	.	.	.	.	.	.	.	.	.	.	.	.	.	.	.
.	.	.	8e-\|>	.	8g/|<	.	8b-/|<	.	.	.	.	.	.	.	.	.	.	.	.	.	.	.	.	.	.	.	.	.	.	.	.	.
.	.	.	8g\J|>	.	8B-/J|<	.	8e-/J|<	.	.	.	.	.	.	.	.	.	.	.	.	.	.	.	.	.	.	.	.	.	.	.	.	.
!	!	!	!LO:TX:t=P:problem:mixed beam	!	!	!	!LO:LB:g=original	!	!	!	!	!	!	!	!	!	!	!	!	!	!	!	!	!	!	!	!	!	!	!	!	!
2E-\	.	.	(8B-/L	.	(8g/L	.	(8b-/L	.	2E-\	Ma-	.	2B-\	Ma-	.	2g\	Ma-	.	2b-\	Ma-	.	.	2ee-\	.	2gg\	.	2E-\	2E-\	.	2g/	.	2b-/	.
.	.	.	8g\)	.	8e-/)	.	8g/)	.	.	.	.	.	.	.	.	.	.	.	.	.	.	.	.	.	.	.	.	.	.	.	.	.
.	.	.	8e-\|>	.	8g/|<	.	8b-/|<	.	.	.	.	.	.	.	.	.	.	.	.	.	.	.	.	.	.	.	.	.	.	.	.	.
.	.	.	8g\J|>	.	8B-/J|<	.	8e-/J|<	.	.	.	.	.	.	.	.	.	.	.	.	.	.	.	.	.	.	.	.	.	.	.	.	.
=15	=15	=15	=15	=15	=15	=15	=15	=15	=15	=15	=15	=15	=15	=15	=15	=15	=15	=15	=15	=15	=15	=15	=15	=15	=15	=15	=15	=15	=15	=15	=15	=15
!	!	!	!LO:TX:t=P:problem:mixed beam	!	!	!	!	!	!	!	!	!	!	!	!	!	!	!	!	!	!	!	!	!	!	!	!	!	!LO:LB:g=original	!	!	!
2B-\	5 4	.	(8B-/L	.	(8f/L	.	(8b-/L	.	2B-\	-ri-	.	2B-\	-ri-	.	2g\	-ri-	.	2b-\	-ri-	.	1.ryy	2b-/	.	2ff\	.	2B-\	2B-\	.	2g/	.	2b-/	.
.	.	.	8f\)	.	8dn/)	.	8g/)	.	.	.	.	.	.	.	.	.	.	.	.	.	.	.	.	.	.	.	.	.	.	.	.	.
.	.	.	8dn\|>	.	8f/|<	.	8a-/|<	.	.	.	.	.	.	.	.	.	.	.	.	.	.	.	.	.	.	.	.	.	.	.	.	.
.	.	.	8f\J|>	.	8B-/J|<	.	8dn/J|<	.	.	.	.	.	.	.	.	.	.	.	.	.	.	.	.	.	.	.	.	.	.	.	.	.
!	!	!	!LO:TX:t=P:problem:mixed beam	!	!	!	!	!	!	!	!	!	!	!	!	!	!	!	!	!	!	!	!	!	!	!	!	!	!	!	!	!
2BB-/	x n	.	(8B-/L	.	(8f/L	.	(8a-/L	.	2BB-/	-a	.	2B-\	-a	.	2f\	-a	.	2a-\	-a	.	.	2b-/	.	2ff\	.	2BB-/	2BB-/	.	2f/	.	2a-/	.
.	.	.	8f\)	.	8d/)	.	8f/)	.	.	.	.	.	.	.	.	.	.	.	.	.	.	.	.	.	.	.	.	.	.	.	.	.
.	.	.	8d\|>	.	8f/|<	.	8a-/|<	.	.	.	.	.	.	.	.	.	.	.	.	.	.	.	.	.	.	.	.	.	.	.	.	.
.	.	.	8f\J|>	.	8B-/J|<	.	8dn/J|<	.	.	.	.	.	.	.	.	.	.	.	.	.	.	.	.	.	.	.	.	.	.	.	.	.
!	!	!	!LO:TX:t=P:problem:mixed beam	!	!	!	!	!	!	!	!	!	!	!	!	!	!	!	!	!	!	!	!	!	!	!	!	!	!	!	!	!
2r	.	.	(8B-/L	.	(8f/L	.	(8a-/L	.	2r	.	.	2r	.	.	2r	.	.	2r	.	.	.	2r	.	2r	.	2r	2r	.	2r	.	2r	.
.	.	.	8f\)	.	8d/)	.	8f/)	.	.	.	.	.	.	.	.	.	.	.	.	.	.	.	.	.	.	.	.	.	.	.	.	.
.	.	.	8d\|>	.	8f/|<	.	8a-/	.	.	.	.	.	.	.	.	.	.	.	.	.	.	.	.	.	.	.	.	.	.	.	.	.
.	.	.	8f\J|>	.	8B-/J|<	.	8d/J|<	.	.	.	.	.	.	.	.	.	.	.	.	.	.	.	.	.	.	.	.	.	.	.	.	.
=16	=16	=16	=16	=16	=16	=16	=16	=16	=16	=16	=16	=16	=16	=16	=16	=16	=16	=16	=16	=16	=16	=16	=16	=16	=16	=16	=16	=16	=16	=16	=16	=16
!	!	!	!LO:TX:t=P:problem:mixed beam	!	!	!	!	!	!	!	!	!	!	!	!	!	!	!	!	!	!	!	!	!	!	!	!	!	!	!	!	!
2BB-/	7 5	.	(8B-/L	.	(8f/L	.	(8a-/L	.	2BB-/	Ma-	.	2B-\	Ma-	.	2f\	Ma-	.	2a-\	Ma-	.	1.ryy	2b-/	.	2ff\	.	2BB-/	2BB-/	.	1f	.	1a-	.
!	!	!	!	!	!LO:SIC:v:s=8dn/)	!	!	!	!	!	!	!	!	!	!	!	!	!	!	!	!	!	!	!	!	!	!	!	!	!	!	!
.	.	.	8f\)	.	8d-/)	.	8f/	.	.	.	.	.	.	.	.	.	.	.	.	.	.	.	.	.	.	.	.	.	.	.	.	.
.	.	.	8dn\|>	.	8f/|<	.	8a-/)|<	.	.	.	.	.	.	.	.	.	.	.	.	.	.	.	.	.	.	.	.	.	.	.	.	.
.	.	.	8f\J|>	.	8B-/J|<	.	8dn/J|<	.	.	.	.	.	.	.	.	.	.	.	.	.	.	.	.	.	.	.	.	.	.	.	.	.
!	!	!	!LO:TX:t=P:problem:mixed beam	!	!	!	!	!	!	!	!	!	!	!	!	!	!	!	!	!	!	!	!	!	!	!	!	!	!	!	!	!
2Dn/	.	.	(8B-/L	.	(8f/L	.	(8a-/L	.	2Dn/	-ri-	.	2B-\	-ri-	.	2f\	-ri-	.	2a-\	-ri-	.	.	2r	.	2r	.	2Dn/	2Dn/	.	.	.	.	.
!	!	!	!	!	!LO:SIC:v:s=8d/)	!	!	!	!	!	!	!	!	!	!	!	!	!	!	!	!	!	!	!	!	!	!	!	!	!	!	!
.	.	.	8f\)	.	8d-/)	.	8f/)	.	.	.	.	.	.	.	.	.	.	.	.	.	.	.	.	.	.	.	.	.	.	.	.	.
.	.	.	8d\|>	.	8f/|<	.	8a-/|<	.	.	.	.	.	.	.	.	.	.	.	.	.	.	.	.	.	.	.	.	.	.	.	.	.
.	.	.	8f\J|>	.	8B-/J|<	.	8d/J|<	.	.	.	.	.	.	.	.	.	.	.	.	.	.	.	.	.	.	.	.	.	.	.	.	.
!	!	!	!LO:TX:t=P:problem:mixed beam	!	!	!	!	!	!	!	!	!	!	!	!	!	!	!	!	!	!	!	!	!	!	!	!	!	!	!	!	!
2BB-/	_ _	.	(8B-/L	.	(8f/L	.	(8a-/L	.	2BB-/	-a	.	2B-\	-a	.	2f\	-a	.	2a-\	-a	.	.	2b-/	.	2ff\	.	2BB-/	2BB-/	.	2f/	.	2a-/	.
!	!	!	!	!	!LO:SIC:v:s=8d/)	!	!	!	!	!	!	!	!	!	!	!	!	!	!	!	!	!	!	!	!	!	!	!	!	!	!	!
.	x x	.	8f\)	.	8d-/)	.	8f/)	.	.	.	.	.	.	.	.	.	.	.	.	.	.	.	.	.	.	.	.	.	.	.	.	.
.	.	.	8d\|>	.	8f/|<	.	8a-/|<	.	.	.	.	.	.	.	.	.	.	.	.	.	.	.	.	.	.	.	.	.	.	.	.	.
.	.	.	8f\J|>	.	8B-/J|<	.	8d/J|<	.	.	.	.	.	.	.	.	.	.	.	.	.	.	.	.	.	.	.	.	.	.	.	.	.
=17	=17	=17	=17	=17	=17	=17	=17	=17	=17	=17	=17	=17	=17	=17	=17	=17	=17	=17	=17	=17	=17	=17	=17	=17	=17	=17	=17	=17	=17	=17	=17	=17
!	!	!	!LO:TX:t=P:problem:mixed beam	!	!	!	!	!	!	!	!	!	!	!	!	!	!	!	!	!	!	!	!	!	!	!	!	!	!	!	!	!
2E-\	4 2	.	(8B-/L	.	(8f/L	.	(8a-/L	.	2.E-\	Vir-	.	2.B-\	Vir-	.	2.f\	Vir-	.	2.a-\	Vir-	.	1.ryy	2b-/	.	2ff\	.	2EE-/	2BB-/	.	2.f/	.	2.a-/	.
!	!	!	!	!	!LO:SIC:v:s=8dn/)	!	!	!	!	!	!	!	!	!	!	!	!	!	!	!	!	!	!	!	!	!	!	!	!	!	!	!
.	.	.	8f\)	.	8d-/)	.	8f/)	.	.	.	.	.	.	.	.	.	.	.	.	.	.	.	.	.	.	.	.	.	.	.	.	.
.	.	.	8dn\|>	.	8f/|<	.	8a-/|<	.	.	.	.	.	.	.	.	.	.	.	.	.	.	.	.	.	.	.	.	.	.	.	.	.
!	!	!	!	!	!	!	!LO:SIC:v:s=8dn/J|<	!	!	!	!	!	!	!	!	!	!	!	!	!	!	!	!	!	!	!	!	!	!	!	!	!
.	.	.	8f\J|>	.	8B-/J|<	.	8d-/J|<	.	.	.	.	.	.	.	.	.	.	.	.	.	.	.	.	.	.	.	.	.	.	.	.	.
!	!	!	!LO:TX:t=P:problem:mixed beam	!	!LO:LB:g=original	!	!	!	!	!	!	!	!	!	!	!	!	!	!	!	!	!	!	!	!	!	!	!	!	!	!	!
2E-\	3 1	.	(8B-/L	.	(8f/L	.	(8a-/L	.	.	.	.	.	.	.	.	.	.	.	.	.	.	2ee-\	.	2gg\	.	2EE-/	2E-\	.	.	.	.	.
.	.	.	8f\)	.	8dn/)	.	8f/)	.	.	.	.	.	.	.	.	.	.	.	.	.	.	.	.	.	.	.	.	.	.	.	.	.
.	.	.	8e-\|>	.	8e-/|<	.	8g/|<	.	4E-\	-gi-	.	4B-\	-gi-	.	4e-\	-gi-	.	4g\	-gi-	.	.	.	.	.	.	.	.	.	4e-/	.	4g/	.
.	.	.	8g\J|>	.	8G/J|<	.	8B-/J|<	.	.	.	.	.	.	.	.	.	.	.	.	.	.	.	.	.	.	.	.	.	.	.	.	.
!	!	!	!LO:TX:t=P:problem:mixed beam	!	!	!	!	!	!	!	!	!	!	!	!	!	!	!	!	!	!	!	!	!	!	!	!	!	!	!	!	!
2r	.	.	(8B-/L	.	(8e-/L	.	(8g/L	.	2E-\	-ne	.	2B-\	-ne	.	2e-\	-ne	.	2g\	-ne	.	.	2r	.	2r	.	2r	2r	.	2e-/	.	2g/	.
.	.	.	8g\)	.	8B-/)	.	8e-/)	.	.	.	.	.	.	.	.	.	.	.	.	.	.	.	.	.	.	.	.	.	.	.	.	.
.	.	.	8e-\|>	.	8e-/|<	.	8g/|<	.	.	.	.	.	.	.	.	.	.	.	.	.	.	.	.	.	.	.	.	.	.	.	.	.
.	.	.	8g\J|>	.	8G/J|<	.	8B-/J|<	.	.	.	.	.	.	.	.	.	.	.	.	.	.	.	.	.	.	.	.	.	.	.	.	.
=18	=18	=18	=18	=18	=18	=18	=18	=18	=18	=18	=18	=18	=18	=18	=18	=18	=18	=18	=18	=18	=18	=18	=18	=18	=18	=18	=18	=18	=18	=18	=18	=18
!	!	!	!LO:TX:t=P:problem:mixed beam	!	!	!	!	!	!	!	!	!LO:LB:g=original	!	!	!	!	!	!LO:LB:g=original	!	!	!	!	!	!LO:LB:g=original	!	!	!	!	!	!	!	!
2E-\	.	.	(8G/L	.	(8g/L	.	(8b-/L	.	1.E-	Et	.	1.B-	Et	.	1.g	Et	.	(1b-	Et	.	1.ryy	2e-/	.	2ee-\	.	2r	2r	.	1g	.	1b-	.
.	.	.	8e-\)	.	8e-/)	.	8g/)	.	.	.	.	.	.	.	.	.	.	.	.	.	.	.	.	.	.	.	.	.	.	.	.	.
.	.	.	8B-\|>	.	8g/|<	.	8b-/|<	.	.	.	.	.	.	.	.	.	.	.	.	.	.	.	.	.	.	.	.	.	.	.	.	.
.	.	.	8e-\J|>	.	8G/J|<	.	8e-/J|<	.	.	.	.	.	.	.	.	.	.	.	.	.	.	.	.	.	.	.	.	.	.	.	.	.
!	!	!	!LO:LB:g=original	!	!	!	!	!	!	!	!	!	!	!	!	!	!	!	!	!	!	!	!	!	!	!	!	!	!	!	!	!
!	!	!	!LO:TX:t=P:problem:mixed beam	!	!	!	!	!	!	!	!	!	!	!	!	!	!	!	!	!	!	!	!	!	!	!	!	!	!	!	!	!
2r	.	.	(8G/L	.	(8g/L	.	(8b-/L	.	.	.	.	.	.	.	.	.	.	.	.	.	.	2r	.	2r	.	2EE-/	2E-\	.	.	.	.	.
.	.	.	8e-\)	.	8e-/)	.	8g/)	.	.	.	.	.	.	.	.	.	.	.	.	.	.	.	.	.	.	.	.	.	.	.	.	.
.	.	.	8B-\|>	.	8g/|<	.	8b-/|<	.	.	.	.	.	.	.	.	.	.	.	.	.	.	.	.	.	.	.	.	.	.	.	.	.
.	.	.	8e-\J|>	.	8G/J|<	.	8e-/J|<	.	.	.	.	.	.	.	.	.	.	.	.	.	.	.	.	.	.	.	.	.	.	.	.	.
!	!	!	!LO:TX:t=P:problem:mixed beam	!	!	!	!	!	!	!	!	!	!	!	!	!	!	!	!	!	!	!	!	!	!	!	!	!	!	!	!	!
2E-\	.	.	(8G/L	.	(8b-/L	.	(8ee-/L	.	.	.	.	.	.	.	.	.	.	2ee-\)	.	.	.	2e-/	.	2ee-\	.	2r	2r	.	2g/	.	2ee-\	.
.	.	.	8e-\)	.	8g/)	.	8b-/)	.	.	.	.	.	.	.	.	.	.	.	.	.	.	.	.	.	.	.	.	.	.	.	.	.
.	.	.	8B-\|>	.	8b-/|<	.	8ee-/|<	.	.	.	.	.	.	.	.	.	.	.	.	.	.	.	.	.	.	.	.	.	.	.	.	.
.	.	.	8e-\J|>	.	8e-/J|<	.	8g/J|<	.	.	.	.	.	.	.	.	.	.	.	.	.	.	.	.	.	.	.	.	.	.	.	.	.
=19	=19	=19	=19	=19	=19	=19	=19	=19	=19	=19	=19	=19	=19	=19	=19	=19	=19	=19	=19	=19	=19	=19	=19	=19	=19	=19	=19	=19	=19	=19	=19	=19
!	!	!	!LO:TX:t=P:problem:mixed beam	!	!	!	!LO:LB:g=original	!	!	!	!	!	!	!	!	!	!	!	!	!	!	!	!	!	!	!LO:LB:g=original	!LO:LB:g=original	!	!	!	!	!
2A-\	x 3	.	(8A-/L	.	(8a-/L	.	(8cc/L	.	1A-	ho-	.	1e-	ho-	.	1a-	ho-	.	1cc	ho-	.	1.ryy	2e-/	.	2ee-\	.	2r	2r	.	1a-	.	1cc	.
.	.	.	8f\)	.	8f/)	.	8a-/)	.	.	.	.	.	.	.	.	.	.	.	.	.	.	.	.	.	.	.	.	.	.	.	.	.
.	.	.	8c\|>	.	8a-/|<	.	8cc/|<	.	.	.	.	.	.	.	.	.	.	.	.	.	.	.	.	.	.	.	.	.	.	.	.	.
.	.	.	8f\J|>	.	8A-/J|<	.	8f/J|<	.	.	.	.	.	.	.	.	.	.	.	.	.	.	.	.	.	.	.	.	.	.	.	.	.
!	!	!	!LO:TX:t=P:problem:mixed beam	!	!	!	!	!	!	!	!	!	!	!	!	!	!	!	!	!	!	!	!	!	!	!	!	!	!	!	!	!
2r	.	.	(8A-/L	.	(8a-/L	.	(8cc/L	.	.	.	.	.	.	.	.	.	.	.	.	.	.	2e-/	.	2ee-\	.	2AA-/	2A-\	.	.	.	.	.
.	.	.	8f\)	.	8f/)	.	8a-/)	.	.	.	.	.	.	.	.	.	.	.	.	.	.	.	.	.	.	.	.	.	.	.	.	.
.	.	.	8c\|>	.	8a-/|<	.	8cc/|<	.	.	.	.	.	.	.	.	.	.	.	.	.	.	.	.	.	.	.	.	.	.	.	.	.
.	.	.	8f\J|>	.	8A-/J|<	.	8f/J|<	.	.	.	.	.	.	.	.	.	.	.	.	.	.	.	.	.	.	.	.	.	.	.	.	.
!	!	!	!LO:TX:t=P:problem:mixed beam	!	!	!	!	!	!	!	!	!	!	!	!	!	!	!	!	!	!	!	!	!	!	!	!	!	!	!	!	!
2F\	x 6	.	(8A-/L	.	(8cc/L	.	(8ff/L	.	2F\	-mo	.	2c\	-mo	.	2a-\	-mo	.	2ff\	-mo	.	.	2r	.	2r	.	2r	2r	.	2a-/	.	2ff\	.
.	.	.	8f\)	.	8a-/)	.	8cc/)	.	.	.	.	.	.	.	.	.	.	.	.	.	.	.	.	.	.	.	.	.	.	.	.	.
.	.	.	8c\|>	.	8cc/|<	.	8ff/|<	.	.	.	.	.	.	.	.	.	.	.	.	.	.	.	.	.	.	.	.	.	.	.	.	.
.	.	.	8f\J|>	.	8f/J|<	.	8a-/J|<	.	.	.	.	.	.	.	.	.	.	.	.	.	.	.	.	.	.	.	.	.	.	.	.	.
=20	=20	=20	=20	=20	=20	=20	=20	=20	=20	=20	=20	=20	=20	=20	=20	=20	=20	=20	=20	=20	=20	=20	=20	=20	=20	=20	=20	=20	=20	=20	=20	=20
!	!	!	!LO:TX:t=P:problem:mixed beam	!	!	!	!	!	!	!	!	!	!	!	!	!	!	!	!	!	!	!	!	!	!	!	!	!	!	!	!	!
1B-	x 4	.	(8G/L	.	(8b-/L	.	(8ee-/L	.	1B-	Fac-	.	1B-	fac-	.	1g	fac-	.	1ee-	fac-	.	1.ryy	1.ryy	.	2ee-\	.	2r	2r	.	1g	.	1ee-	.
.	.	.	8e-\)	.	8g/)	.	8b-/)	.	.	.	.	.	.	.	.	.	.	.	.	.	.	.	.	.	.	.	.	.	.	.	.	.
.	.	.	8B-\|>	.	8b-/|<	.	8ee-/|<	.	.	.	.	.	.	.	.	.	.	.	.	.	.	.	.	.	.	.	.	.	.	.	.	.
.	.	.	8e-\J|>	.	8B-/J|<	.	8g/J|<	.	.	.	.	.	.	.	.	.	.	.	.	.	.	.	.	.	.	.	.	.	.	.	.	.
!	!	!	!LO:TX:t=P:problem:mixed beam	!	!	!	!	!	!	!	!	!	!	!	!	!	!	!	!	!	!	!	!	!	!	!	!	!	!	!	!	!
.	.	.	(8G/L	.	(8b-/L	.	(8ee-/L	.	.	.	.	.	.	.	.	.	.	.	.	.	.	.	.	2gg\	.	2B-\	2B-\	.	.	.	.	.
.	.	.	8e-\)	.	8g/)	.	8b-/)	.	.	.	.	.	.	.	.	.	.	.	.	.	.	.	.	.	.	.	.	.	.	.	.	.
.	.	.	8B-\|>	.	8b-/|<	.	8ee-/|<	.	.	.	.	.	.	.	.	.	.	.	.	.	.	.	.	.	.	.	.	.	.	.	.	.
.	.	.	8e-\J|>	.	8B-/J|<	.	8e-/J|<	.	.	.	.	.	.	.	.	.	.	.	.	.	.	.	.	.	.	.	.	.	.	.	.	.
!	!	!	!LO:TX:t=P:problem:mixed beam	!	!	!	!	!	!LO:LB:g=original	!	!	!	!	!	!	!	!	!	!	!	!	!	!	!	!	!	!	!	!	!	!LO:LB:g=original	!
2BB-/	x n	.	8B-/L	.	(8a-/L	.	(8ddn/L	.	2BB-/	-tus	.	2B-\	-tus	.	2f\	-tus	.	2ddn\	-tus	.	.	.	.	2ff\	.	2BB-/	2BB-/	.	2f/	.	2ddn\	.
.	.	.	8f\	.	8f/)	.	8b-/)	.	.	.	.	.	.	.	.	.	.	.	.	.	.	.	.	.	.	.	.	.	.	.	.	.
.	.	.	8dn\	.	8a-/|<	.	8dd/|<	.	.	.	.	.	.	.	.	.	.	.	.	.	.	.	.	.	.	.	.	.	.	.	.	.
.	.	.	8f\J	.	8A-/J|<	.	8f/J	.	.	.	.	.	.	.	.	.	.	.	.	.	.	.	.	.	.	.	.	.	.	.	.	.
=21	=21	=21	=21	=21	=21	=21	=21	=21	=21	=21	=21	=21	=21	=21	=21	=21	=21	=21	=21	=21	=21	=21	=21	=21	=21	=21	=21	=21	=21	=21	=21	=21
*	*	*	*	*	*^	*	*^	*	*	*	*	*	*	*	*	*	*	*	*	*	*	*	*	*	*	*	*	*	*	*	*	*
!	!	!	!	!	!	!	!	!	!	!	!	!	!	!	!	!	!LO:LB:g=original	!	!	!	!	!	!	!LO:LB:g=original	!	!	!	!	!LO:TX:b:t=Dolce:color=red	!	!	!	!LO:TX:a:t=Solo	!
2E-\	5 3	.	2B-/	.	2ryy	2G/ 2g	.	2ryy	2ee-\	.	2E-\	est	.	2B-\	est	.	2g\	est	.	2ee-\	est	.	1.ryy	2e-/	.	2ee-\	.	2E-\	2E-\	.	2g/	.	2ee-\	.
*	*	*	*	*	*cue	*	*	*cue	*	*	*	*	*	*	*	*	*	*	*	*	*	*	*	*	*	*	*	*	*	*	*	*	*	*
!LO:TX:b:t=unis	!	!	!	!	!	!	!	!	!	!	!	!	!	!	!	!	!	!	!	!	!	!	!	!	!	!	!	!	!	!	!	!	!	!
!LO:TX:b:t=pedal	!	!LO:DY:b:color=red:rj	!	!	!LO:TX:b:t=oboi.	!	!	!LO:TX:b:t=oboi	!	!	!	!	!	!	!	!	!	!	!	!	!	!	!	!	!	!	!	!	!	!	!LO:TX:b:t=Solo	!	!LO:TX:b:t=Dolce:color=red	!
2E-\|>	.	p	2r	.	2ee-/	2r	.	2gg/	2r	.	2r	.	.	2r	.	.	2r	.	.	2r	.	.	.	2f/	.	2g/	.	2E-\	2G\	.	2ee-\|>	.	2gg\	.
2G\|>	.	.	2r	.	2ee-/	2r	.	2gg/	2r	.	2r	.	.	2r	.	.	2r	.	.	2r	.	.	.	2e-/	.	2e-/	.	2E-\	2G\	.	2ee-\|>	.	2gg\	.
=22	=22	=22	=22	=22	=22	=22	=22	=22	=22	=22	=22	=22	=22	=22	=22	=22	=22	=22	=22	=22	=22	=22	=22	=22	=22	=22	=22	=22	=22	=22	=22	=22	=22	=22
*	*	*	*	*	*Xbrackettup	*	*	*	*	*	*	*	*	*	*	*	*	*	*	*	*	*	*	*	*	*	*	*Xbrackettup	*Xbrackettup	*	*Xbrackettup	*	*Xbrackettup	*
!	!	!	!	!	!LO:TUP:a:problem:klamra łukowa	!	!	!	!	!	!	!	!	!	!	!	!	!	!	!	!	!	!	!	!	!	!	!	!	!	!LO:TX:b:t=Dolce:color=red	!	!	!
!	!	!	!LO:TX:a:t=4	!	!LO:TX:b:t=1	!	!	!LO:TX:b:t=1	!	!	!	!	!	!LO:TX:a:t=ii	!	!	!LO:TX:a:t=ii	!	!	!LO:TX:a:t=ii	!	!	!	!	!	!	!	!LO:TUP:a:problem:klamra łukowa	!LO:TUP:a:problem:klamra łukowa	!	!LO:TUP:a:problem:klamra łukowa	!	!LO:TUP:a:problem:klamra łukowa	!
2B-\|>	.	.	00.r	.	6ee-/	1.r	.	(<4gg/	1.r	.	00.r	.	.	00.r	.	.	00.r	.	.	00.r	.	.	1.ryy	2B-/	.	2b-/	.	6E-\	6G\	.	6ee-\	.	6gg\	.
!	!	!	!	!	!LO:SIC:v:s=6ddn/	!	!	!	!	!	!	!	!	!	!	!	!	!	!	!	!	!	!	!	!	!	!	!LO:SIC:v:s=6Dn\	!	!	!LO:SIC:v:s=6ddn\	!	!	!
.	.	.	.	.	6dd-/	.	.	.	.	.	.	.	.	.	.	.	.	.	.	.	.	.	.	.	.	.	.	6D-\	6F\	.	6dd-\	.	6ff\	.
.	.	.	.	.	.	.	.	8ff/L	.	.	.	.	.	.	.	.	.	.	.	.	.	.	.	.	.	.	.	.	.	.	.	.	.	.
.	.	.	.	.	6ee-/	.	.	.	.	.	.	.	.	.	.	.	.	.	.	.	.	.	.	.	.	.	.	6E-\	6G\	.	6ee-\	.	6gg\	.
.	.	.	.	.	.	.	.	8gg/J)	.	.	.	.	.	.	.	.	.	.	.	.	.	.	.	.	.	.	.	.	.	.	.	.	.	.
2BB-/|<	.	.	.	.	4ff/	.	.	4aa-/|<	.	.	.	.	.	.	.	.	.	.	.	.	.	.	.	2r	.	2r	.	4F\	4A-\	.	(4ff\	.	(4aa-\	.
.	.	.	.	.	4ee-/	.	.	4gg/|<	.	.	.	.	.	.	.	.	.	.	.	.	.	.	.	.	.	.	.	4E-\	4G\	.	4ee-\)	.	4gg\)	.
!	!	!	!	!	!LO:SIC:v:s=4ddn/	!	!	!	!	!	!	!	!	!	!	!	!	!	!	!	!	!	!	!	!	!	!	!	!	!	!	!	!	!
2r	.	.	.	.	4dd-/	.	.	4ff/|<	.	.	.	.	.	.	.	.	.	.	.	.	.	.	.	2r	.	2r	.	4Dn\	4F\	.	4ddn\|>	.	(4ff\|>	.
.	.	.	.	.	4ee-/	.	.	4gg/|<	.	.	.	.	.	.	.	.	.	.	.	.	.	.	.	.	.	.	.	4E-\	4G\	.	4ee-\|>	.	4gg\)|>	.
=23	=23	=23	=23	=23	=23	=23	=23	=23	=23	=23	=23	=23	=23	=23	=23	=23	=23	=23	=23	=23	=23	=23	=23	=23	=23	=23	=23	=23	=23	=23	=23	=23	=23	=23
!	!	!	!	!	!LO:TX:b:t=2	!	!	!LO:TX:b:t=2	!	!	!	!	!	!	!	!	!	!	!	!	!	!	!	!	!	!	!	!	!	!	!	!	!	!
2BB-/|<	.	.	.	.	2ff/	1.rg	.	2aa-/	1.r	.	.	.	.	.	.	.	.	.	.	.	.	.	1.ryy	2B-/	.	2b-/	.	2F\	2A-\	.	2ff\	.	2aa-\	.
!LO:LB:g=original	!	!	!	!	!LO:SIC:v:s=4ddn/	!	!	!	!	!	!	!	!	!	!	!	!	!	!	!	!	!	!	!	!	!	!	!LO:SIC:v:s=4dn\	!	!	!LO:SIC:v:s=4ddn\|>	!	!	!
2r	.	.	.	.	4dd-/	.	.	(<4ff/	.	.	.	.	.	.	.	.	.	.	.	.	.	.	.	2r	.	2r	.	4d-\	4f\	.	4dd-\|>	.	(4ff\	.
.	.	.	.	.	4cc/	.	.	4ee-/	.	.	.	.	.	.	.	.	.	.	.	.	.	.	.	.	.	.	.	4c\	4e-\	.	4cc\|>	.	4ee-\)	.
!	!	!	!	!	!	!	!	!	!	!	!	!	!	!	!	!	!	!	!	!	!	!	!	!	!	!	!	!	!LO:SIC:v:s=4dn\	!	!	!	!	!
2r	.	.	.	.	4b-/	.	.	4ddn/)|<	.	.	.	.	.	.	.	.	.	.	.	.	.	.	.	2r	.	2r	.	4B-\	4d-\	.	4b-\|>	.	4ddn\|>	.
.	.	.	.	.	4a-/	.	.	4cc/|<	.	.	.	.	.	.	.	.	.	.	.	.	.	.	.	.	.	.	.	4A-\	4c\	.	4a-\|>	.	4cc\|>	.
=24	=24	=24	=24	=24	=24	=24	=24	=24	=24	=24	=24	=24	=24	=24	=24	=24	=24	=24	=24	=24	=24	=24	=24	=24	=24	=24	=24	=24	=24	=24	=24	=24	=24	=24
!	!	!	!	!	!LO:LB:g=original	!	!	!	!	!	!	!	!	!	!	!	!	!	!	!	!	!	!	!	!	!	!	!	!	!	!	!	!	!
!	!	!	!	!	!LO:TX:a:t=3	!	!	!LO:TX:b:t=3	!	!	!	!	!	!	!	!	!	!	!	!	!	!	!	!	!	!	!	!	!	!	!	!	!	!
2r	.	.	.	.	1g	1.rdd	.	1b-	1.r	.	.	.	.	.	.	.	.	.	.	.	.	.	1.ryy	2r	.	2r	.	1G	1B-	.	1g	.	(<1b-	.
!LO:SIC:v:s=2FF/|<	!	!	!	!	!	!	!	!	!	!	!	!	!	!	!	!	!	!	!	!	!	!	!	!	!	!	!	!	!	!	!	!	!	!
2GG/|<	.	.	.	.	.	.	.	.	.	.	.	.	.	.	.	.	.	.	.	.	.	.	.	2f/	.	2g/	.	.	.	.	.	.	.	.
2BB-/|<	.	.	.	.	2f/	.	.	2a-/	.	.	.	.	.	.	.	.	.	.	.	.	.	.	.	2b-/	.	2b-/	.	2F\	2A-\	.	2f/	.	2a-/)	.
=25	=25	=25	=25	=25	=25	=25	=25	=25	=25	=25	=25	=25	=25	=25	=25	=25	=25	=25	=25	=25	=25	=25	=25	=25	=25	=25	=25	=25	=25	=25	=25	=25	=25	=25
2E-\|>	.	.	.	.	2f/	2rdd	.	2a-/	2r	.	.	.	.	.	.	.	.	.	.	.	.	.	1.ryy	2ee-\	.	2ee-\	.	2F\	2A-\	.	2f/	.	2a-/	.
2EE-/|<	.	.	.	.	2e-/	2rdd	.	2g/	2r	.	.	.	.	.	.	.	.	.	.	.	.	.	.	2e-/	.	2e-/	.	2E-\	2G\	.	2e-/	.	2g/	.
*	*	*	*	*	*Xcue	*	*	*Xcue	*	*	*	*	*	*	*	*	*	*	*	*	*	*	*	*	*	*	*	*	*	*	*	*	*	*
!	!	!	!	!	!LO:LB:g=original	!	!LO:DY:a:color=red:t=piano	!	!	!	!	!	!	!	!	!	!	!	!	!	!	!	!	!	!	!	!	!	!	!	!	!	!	!
2r	.	.	.	.	(4c/	2ryy	p	2ryy	(4cc\	.	.	.	.	.	.	.	.	.	.	.	.	.	.	2r	.	2r	.	2r	2r	.	2r	.	2r	.
.	.	.	.	.	4Bn/)	.	.	.	4bn\)	.	.	.	.	.	.	.	.	.	.	.	.	.	.	.	.	.	.	.	.	.	.	.	.	.
*	*	*	*	*	*v	*v	*	*	*	*	*	*	*	*	*	*	*	*	*	*	*	*	*	*	*	*	*	*	*	*	*	*	*	*
*	*	*	*	*	*	*	*v	*v	*	*	*	*	*	*	*	*	*	*	*	*	*	*	*	*	*	*	*	*	*	*	*	*	*
=26	=26	=26	=26	=26	=26	=26	=26	=26	=26	=26	=26	=26	=26	=26	=26	=26	=26	=26	=26	=26	=26	=26	=26	=26	=26	=26	=26	=26	=26	=26	=26	=26
!	!	!	!	!LO:DY:b:color=red	!	!	!LO:LB:g=original	!	!	!	!	!	!	!	!	!	!	!	!	!	!	!LO:TX:a:t=3	!	!LO:TX:a:t=3	!	!	!	!LO:DY:b:color=red	!LO:TX:a:t=3	!	!LO:TX:a:t=3	!
2A-\|>	.	.	2f\	p	(4c/	.	(4cc\	.	00.r	.	.	00.r	.	.	00.r	.	.	00.r	.	.	1.ryy	0.r	.	0.r	.	2AA-/	2F\	p	0.r	.	0.r	.
.	.	.	.	.	4en/)	.	4een\)	.	.	.	.	.	.	.	.	.	.	.	.	.	.	.	.	.	.	.	.	.	.	.	.	.
2r	.	.	2r	.	4f/|<	.	4ff\|>	.	.	.	.	.	.	.	.	.	.	.	.	.	.	.	.	.	.	2r	2r	.	.	.	.	.
.	.	.	.	.	4g/|<	.	4gg\|>	.	.	.	.	.	.	.	.	.	.	.	.	.	.	.	.	.	.	.	.	.	.	.	.	.
2r	.	.	2r	.	4a-/|<	.	4aa-\|>	.	.	.	.	.	.	.	.	.	.	.	.	.	.	.	.	.	.	2r	2r	.	.	.	.	.
.	.	.	.	.	4cc/|<	.	4ccc\|>	.	.	.	.	.	.	.	.	.	.	.	.	.	.	.	.	.	.	.	.	.	.	.	.	.
=27	=27	=27	=27	=27	=27	=27	=27	=27	=27	=27	=27	=27	=27	=27	=27	=27	=27	=27	=27	=27	=27	=27	=27	=27	=27	=27	=27	=27	=27	=27	=27	=27
!LO:TX:a:t=2	!	!	!LO:TX:a:t=2	!	!	!	!	!	!	!	!	!	!	!	!	!	!	!	!	!	!	!	!	!	!	!	!LO:TX:a:t=2	!	!	!	!	!
0.r	.	.	0.r	.	4a-/|<	.	4aa-\|>	.	.	.	.	.	.	.	.	.	.	.	.	.	1.ryy	.	.	.	.	0.r	0.r	.	.	.	.	.
.	.	.	.	.	4g/|<	.	4gg\|>	.	.	.	.	.	.	.	.	.	.	.	.	.	.	.	.	.	.	.	.	.	.	.	.	.
.	.	.	.	.	4f/|<	.	4ff\|>	.	.	.	.	.	.	.	.	.	.	.	.	.	.	.	.	.	.	.	.	.	.	.	.	.
.	.	.	.	.	4e-X/|<	.	4ee-X\|>	.	.	.	.	.	.	.	.	.	.	.	.	.	.	.	.	.	.	.	.	.	.	.	.	.
!	!	!	!	!	!LO:SIC:v:s=4dn/|<	!	!	!	!	!	!	!	!	!	!	!	!	!	!	!	!	!	!	!	!	!	!	!	!	!	!	!
.	.	.	.	.	4d-/|<	.	4ddn\|>	.	.	.	.	.	.	.	.	.	.	.	.	.	.	.	.	.	.	.	.	.	.	.	.	.
.	.	.	.	.	4c/|<	.	4cc\|>	.	.	.	.	.	.	.	.	.	.	.	.	.	.	.	.	.	.	.	.	.	.	.	.	.
=28	=28	=28	=28	=28	=28	=28	=28	=28	=28	=28	=28	=28	=28	=28	=28	=28	=28	=28	=28	=28	=28	=28	=28	=28	=28	=28	=28	=28	=28	=28	=28	=28
.	.	.	.	.	2B-/	.	2b-\	.	.	.	.	.	.	.	.	.	.	.	.	.	1.ryy	1.r	.	1.r	.	.	.	.	1.r	.	1.r	.
.	.	.	.	.	2dn/	.	2ddn\	.	.	.	.	.	.	.	.	.	.	.	.	.	.	.	.	.	.	.	.	.	.	.	.	.
.	.	.	.	.	2f/	.	2ff\	.	.	.	.	.	.	.	.	.	.	.	.	.	.	.	.	.	.	.	.	.	.	.	.	.
=29	=29	=29	=29	=29	=29	=29	=29	=29	=29	=29	=29	=29	=29	=29	=29	=29	=29	=29	=29	=29	=29	=29	=29	=29	=29	=29	=29	=29	=29	=29	=29	=29
!	!	!	!	!	!	!LO:DY:b:color=red:t=for	!	!LO:DY:b:color=red:t=for	!	!	!	!	!	!	!	!	!	!	!	!	!	!	!	!	!	!	!	!	!LO:LB:g=original	!	!	!
2r	.	.	2r	.	2a-/	f	1aa-	f	.	.	.	.	.	.	.	.	.	.	.	.	1.ryy	2r	.	2r	.	2r	2r	.	2r	.	2r	.
!LO:TX:b:t=organo Solo	!	!	!	!LO:DY:b:color=red:rj	!	!	!	!	!	!	!	!	!	!	!	!	!	!	!	!	!	!	!	!	!	!	!	!LO:DY:b:color=red:rj	!	!LO:DY:b:color=red:t=pia	!	!LO:DY:b:color=red:t=pia
2BB-/	7 5	.	2f\	f	2ddn\	.	.	.	.	.	.	.	.	.	.	.	.	.	.	.	.	2b-/	.	2ff\	.	2BB-/	2B-\	f	2f/	p	2ddn\	p
2E-\	x 3	.	2g\	.	2ee-\	.	2gg\	.	.	.	.	.	.	.	.	.	.	.	.	.	.	2ee-\	.	2gg\	.	2E-\	2B-\	.	2g/	.	2ee-\	.
=30	=30	=30	=30	=30	=30	=30	=30	=30	=30	=30	=30	=30	=30	=30	=30	=30	=30	=30	=30	=30	=30	=30	=30	=30	=30	=30	=30	=30	=30	=30	=30	=30
2A-\	.	.	2cc\	.	1a-	.	(2ff\	.	0.r	.	.	0.r	.	.	0.r	.	.	0.r	.	.	1.ryy	2r	.	2r	.	2A-\	2c\	.	2a-/	.	(2ff\	.
!	!	!LO:DY:b:color=red:t=fort	!	!	!	!	!	!	!	!	!	!	!	!	!	!	!	!	!	!	!	!	!	!	!	!	!	!	!	!	!	!
2r	.	f	2r	.	.	.	2aa-\)	.	.	.	.	.	.	.	.	.	.	.	.	.	.	2r	.	2r	.	2r	2r	.	2r	.	2aa-\)	.
!	!	!	!	!	!	!	!	!	!	!	!	!	!	!	!	!	!	!	!	!	!	!	!	!	!	!	!	!	!	!LO:DY:b:color=red:t=for	!	!LO:DY:b:color=red:t=for
2BB-/	x n	.	2b-\	.	2f/	.	2ddn\|>	.	.	.	.	.	.	.	.	.	.	.	.	.	.	2b-/	.	2ff\	.	2BB-/	2BB-/	.	2f/	f	2ddn\	f
=31	=31	=31	=31	=31	=31	=31	=31	=31	=31	=31	=31	=31	=31	=31	=31	=31	=31	=31	=31	=31	=31	=31	=31	=31	=31	=31	=31	=31	=31	=31	=31	=31
!	!	!	!LO:LB:g=original	!	!	!	!	!	!	!	!	!	!	!	!	!	!	!	!	!	!	!	!	!	!	!	!	!	!	!	!	!
2E-\	x 3	.	2b-\	.	2g/	.	2ee-\	.	.	.	.	.	.	.	.	.	.	.	.	.	1.ryy	2ee-\	.	2gg\	.	2EE-/	2E-\	.	2g/	.	2ee-\	.
2r	.	.	2r	.	2r	.	2r	.	.	.	.	.	.	.	.	.	.	.	.	.	.	2r	.	2r	.	2r	2r	.	2r	.	2r	.
!LO:TX:a:t=Pedal	!	!LO:DY:color=red:rj	!	!LO:DY:b:color=red:t=pia	!	!LO:DY:b:color=red	!	!LO:DY:b:color=red:t=pia	!	!	!	!	!	!	!	!	!	!	!	!	!	!	!	!	!	!	!	!LO:DY:b:color=red:t=	!	!LO:DY:b:color=red:rj	!	!LO:DY:b:color=red
2EE-/	.	p	2b-\	p	2g/	pp	2ee-\|>	p	.	.	.	.	.	.	.	.	.	.	.	.	.	2e-/	.	2b-/	.	2EE-/	2E-\	pp	2g/	pp	2ee-\	pp
=32	=32	=32	=32	=32	=32	=32	=32	=32	=32	=32	=32	=32	=32	=32	=32	=32	=32	=32	=32	=32	=32	=32	=32	=32	=32	=32	=32	=32	=32	=32	=32	=32
!	!	!	!	!	!	!	!	!	!	!	!	!	!	!	!	!	!	!	!	!	!	!	!	!LO:LB:g=original	!	!	!	!	!	!	!	!
2EE-/	.	.	2b-\	.	2g/	.	2ee-\|>	.	1.r	.	.	1.r	.	.	1.r	.	.	1.r	.	.	1.ryy	2e-/	.	2b-/	.	2EE-/	2E-\	.	2g/	.	2ee-\	.
2r	.	.	2r	.	2r	.	2r	.	.	.	.	.	.	.	.	.	.	.	.	.	.	2r	.	2r	.	2r	2r	.	2r	.	2r	.
2r	.	.	2r	.	2r	.	2r	.	.	.	.	.	.	.	.	.	.	.	.	.	.	2r	.	2r	.	2r	2r	.	2r	.	2r	.
=33||	=33||	=33||	=33||	=33||	=33||	=33||	=33||	=33||	=33||	=33||	=33||	=33||	=33||	=33||	=33||	=33||	=33||	=33||	=33||	=33||	=33||	=33||	=33||	=33||	=33||	=33||	=33||	=33||	=33||	=33||	=33||	=33||
!	!	!	!	!	!	!	!LO:TX:a:t=3	!	!	!	!	!	!	!	!	!	!	!	!	!	!	!	!	!	!	!	!	!	!LO:TX:b:t=Crucifixus	!	!LO:TX:b:t=Crucif	!
!LO:TX:b:t=unis	!	!	!LO:TX:a:t=3	!	!LO:TX:a:t=3	!	!LO:TX:b:t=Crucifixus	!	!	!	!LO:DY:b:color=red:t=	!	!	!LO:DY:b:color=red:rj	!LO:TX:a:t=3	!	!	!LO:TX:a:t=3	!	!	!	!	!LO:DY:a:color=red	!	!LO:DY:b:color=red:t=mezzo Piano	!LO:TX:a:t=3	!LO:TX:a:t=3	!	!LO:TX:a:t=20	!	!LO:TX:a:t=20	!
1e-	.	.	0.r	.	0.r	.	0.r	.	1e-	Cru-	f	1e-	Cru-	f	0.r	.	.	0.r	.	.	1.ryy	2e-/	mf	2ee-\	mp	0.r	0.r	.	00.r	.	00.r	.
.	.	.	.	.	.	.	.	.	.	.	.	.	.	.	.	.	.	.	.	.	.	2r	.	2r	.	.	.	.	.	.	.	.
2Bn\|>	.	.	.	.	.	.	.	.	2Bn\	-ci-	.	2Bn\	-ci-	.	.	.	.	.	.	.	.	2r	.	2r	.	.	.	.	.	.	.	.
=34	=34	=34	=34	=34	=34	=34	=34	=34	=34	=34	=34	=34	=34	=34	=34	=34	=34	=34	=34	=34	=34	=34	=34	=34	=34	=34	=34	=34	=34	=34	=34	=34
!	!	!	!	!	!	!	!	!	!	!	!	!	!	!	!	!	!	!	!	!	!	!LO:TX:a:t=2	!	!LO:TX:a:t=2	!	!	!	!	!	!	!	!
2c\|>	.	.	.	.	.	.	.	.	(2c\	-fix-	.	(2c\	-fix-	.	.	.	.	.	.	.	1.ryy	0.r	.	0.r	.	.	.	.	.	.	.	.
2A-\|>	.	.	.	.	.	.	.	.	2A-X\)	.	.	2A-X\)	.	.	.	.	.	.	.	.	.	.	.	.	.	.	.	.	.	.	.	.
2F\|>	.	.	.	.	.	.	.	.	2F\	-us	.	2F/	-us	.	.	.	.	.	.	.	.	.	.	.	.	.	.	.	.	.	.	.
=35	=35	=35	=35	=35	=35	=35	=35	=35	=35	=35	=35	=35	=35	=35	=35	=35	=35	=35	=35	=35	=35	=35	=35	=35	=35	=35	=35	=35	=35	=35	=35	=35
!LO:PB:g=original	!	!	!	!	!	!	!	!	!	!	!	!	!	!	!	!	!	!	!	!	!	!	!	!	!	!	!	!	!	!	!	!
2.B-X\|>	.	.	1.r	.	1.r	.	1.r	.	2.B-X\	E-	.	(2.B-X\	E-	.	1.r	.	.	1.r	.	.	1.ryy	.	.	.	.	1.r	1.r	.	.	.	.	.
4A-\|>	.	.	.	.	.	.	.	.	4A-\	.	.	4A-\	.	.	.	.	.	.	.	.	.	.	.	.	.	.	.	.	.	.	.	.
(8G\L	.	.	.	.	.	.	.	.	8G\L	.	.	8G/L	.	.	.	.	.	.	.	.	.	.	.	.	.	.	.	.	.	.	.	.
8A-\)	.	.	.	.	.	.	.	.	8A-\J	.	.	8A-/J)	.	.	.	.	.	.	.	.	.	.	.	.	.	.	.	.	.	.	.	.
(8F\	.	.	.	.	.	.	.	.	8F\L	-ti-	.	8F/L	-ti-	.	.	.	.	.	.	.	.	.	.	.	.	.	.	.	.	.	.	.
8G\J)	.	.	.	.	.	.	.	.	8G\J	.	.	8G/J	.	.	.	.	.	.	.	.	.	.	.	.	.	.	.	.	.	.	.	.
=36	=36	=36	=36	=36	=36	=36	=36	=36	=36	=36	=36	=36	=36	=36	=36	=36	=36	=36	=36	=36	=36	=36	=36	=36	=36	=36	=36	=36	=36	=36	=36	=36
!	!	!	!	!LO:DY:b:color=red:t=	!	!	!LO:LB:g=original	!	!	!	!	!	!	!	!	!	!	!	!	!	!	!LO:TX:t=P:problem:takt nieczytelny	!	!	!	!LO:PB:g=original	!LO:PB:g=original	!	!	!	!	!
2E-\|>	.	.	2r	mf	2r	.	2r	.	2E-\	-am	.	2E-/	-am	.	2r	.	.	2r	.	.	1.ryy	1.ryy	.	2r	.	2r	2r	.	.	.	.	.
2r	.	.	2r	.	2r	.	2r	.	2r	.	.	2r	.	.	2r	.	.	2r	.	.	.	.	.	2r	.	2r	2r	.	.	.	.	.
!	!	!LO:DY:b:color=red:t=mezzo pia	!	!	!	!LO:DY:b:color=red:t=mezzo Piano:rj	!	!LO:DY:b:color=red:t=mezzo pia	!	!	!	!	!	!	!	!	!	!	!	!	!	!	!	!	!	!	!	!LO:DY:b:color=red:t=pia:rj	!	!	!	!
2BB-/	x n	mp	2B-/	.	2f/	mp	2ddn\	mp	2r	.	.	2r	.	.	2f\	pro	.	2ddn\	pro	.	.	.	.	2ff\	.	2BB-/	2BB-/	p	.	.	.	.
=37	=37	=37	=37	=37	=37	=37	=37	=37	=37	=37	=37	=37	=37	=37	=37	=37	=37	=37	=37	=37	=37	=37	=37	=37	=37	=37	=37	=37	=37	=37	=37	=37
!	!	!	!	!	!LO:LB:g=original	!	!LO:SIC:v:s=(4ddn\	!	!LO:TX:a:t=1	!	!	!LO:TX:a:t=i	!	!	!	!	!	!LO:SIC:v:s=(4ddn\	!	!	!	!LO:LB:g=original	!	!	!	!	!	!	!	!	!	!
2E-\	4 2	.	2e-\	.	(4f/	.	(4dd-\	.	1.r	.	.	1.r	.	.	(4f\	no-	.	(4dd-\	no-	.	1.ryy	4b-/	.	4ff\	.	2E-\	2E-\	.	00.r	.	00.r	.
.	.	.	.	.	4g/)	.	4ee-\)	.	.	.	.	.	.	.	4g\)	.	.	4ee-\)	.	.	.	4ee-\	.	4gg\	.	.	.	.	.	.	.	.
2EE-/	3 1	.	2e-\	.	2g/	.	2ee-\	.	.	.	.	.	.	.	2g\	-bis	.	2ee-\	-bis	.	.	2ee-\	.	2gg\	.	2EE-/	2EE-/	.	.	.	.	.
2r	.	.	2r	.	2r	.	2r	.	.	.	.	.	.	.	2r	.	.	2r	.	.	.	2r	.	2r	.	2r	2r	.	.	.	.	.
=38	=38	=38	=38	=38	=38	=38	=38	=38	=38	=38	=38	=38	=38	=38	=38	=38	=38	=38	=38	=38	=38	=38	=38	=38	=38	=38	=38	=38	=38	=38	=38	=38
!LO:TX:b:t=unis	!	!	!	!	!	!	!	!	!	!	!	!	!	!	!	!	!	!	!	!	!	!	!	!	!	!	!	!	!	!	!	!
!	!	!	!LO:TX:a:t=1	!	!LO:TX:a:t=i	!	!	!	!	!	!	!LO:LB:g=original	!	!	!LO:TX:a:t=i	!	!	!LO:TX:a:t=1	!	!	!	!LO:TX:a:t=i	!	!LO:TX:a:t=i	!	!	!LO:TX:a:t=i	!	!	!	!	!
2.B-\|>	.	.	1.r	.	1.r	.	1.r	.	2.B-\	E-	.	(2.B-\	Et-	.	1.r	.	.	1.r	.	.	1.ryy	1.r	.	1.r	.	1.r	1.r	.	.	.	.	.
4A-\|>	.	.	.	.	.	.	.	.	4A-\	.	.	4A-\	.	.	.	.	.	.	.	.	.	.	.	.	.	.	.	.	.	.	.	.
(8G\L	.	.	.	.	.	.	.	.	8G\L	.	.	8G/L	.	.	.	.	.	.	.	.	.	.	.	.	.	.	.	.	.	.	.	.
8A-\)	.	.	.	.	.	.	.	.	8A-\J	.	.	8A-/J)	.	.	.	.	.	.	.	.	.	.	.	.	.	.	.	.	.	.	.	.
(8F\	.	.	.	.	.	.	.	.	8F\L	-ti-	.	8F/L	-i-	.	.	.	.	.	.	.	.	.	.	.	.	.	.	.	.	.	.	.
8G\J)	.	.	.	.	.	.	.	.	8G\J	.	.	8G/J	.	.	.	.	.	.	.	.	.	.	.	.	.	.	.	.	.	.	.	.
=39	=39	=39	=39	=39	=39	=39	=39	=39	=39	=39	=39	=39	=39	=39	=39	=39	=39	=39	=39	=39	=39	=39	=39	=39	=39	=39	=39	=39	=39	=39	=39	=39
!	!	!	!	!	!	!	!	!	!	!	!	!LO:SIC:v:s=2E-/	!	!	!	!	!	!	!	!	!	!	!	!	!	!	!	!	!	!	!	!
2E-\|>	.	.	2r	.	2r	.	2r	.	2E-\	-am	.	2F/	-am	.	2r	.	.	2r	.	.	1.ryy	2r	.	2r	.	2r	2r	.	.	.	.	.
2r	.	.	2r	.	2r	.	2r	.	2r	.	.	2r	.	.	2r	.	.	2r	.	.	.	2r	.	2r	.	2r	2r	.	.	.	.	.
*	*	*	*	*	*	*	*	*	*	*	*	*	*	*	*	*ij	*	*	*	*	*	*	*	*	*	*	*	*	*	*	*	*
!	!	!	!	!	!	!	!	!	!	!	!	!	!	!	!	!	!	!LO:SIC:v:s=2ddn\	!	!	!	!	!	!	!	!	!	!	!	!	!	!
2BB-/	x n	.	2B-/	.	2f/	.	2ddn\	.	2r	.	.	2r	.	.	2f\	pro	.	2dd-\	pro	.	.	2b-/	.	2ff\	.	2BB-/	2BB-/	.	.	.	.	.
=40	=40	=40	=40	=40	=40	=40	=40	=40	=40	=40	=40	=40	=40	=40	=40	=40	=40	=40	=40	=40	=40	=40	=40	=40	=40	=40	=40	=40	=40	=40	=40	=40
!	!	!	!	!	!	!	!	!	!LO:LB:g=original	!	!	!	!	!	!	!	!	!	!	!	!	!	!	!	!	!	!	!	!	!	!	!
!	!	!	!	!	!	!	!LO:SIC:v:s=(4ddn\	!	!LO:TX:a:t=1	!	!	!LO:TX:a:t=1	!	!	!	!	!	!LO:SIC:v:s=(4ddn\	!	!	!	!	!	!	!	!	!	!	!	!	!	!
2E-\	4 2	.	2B-/	.	(4f/	.	(4dd-\	.	1.r	.	.	1.r	.	.	(4f\	no-	.	(4dd-\	no-	.	1.ryy	4b-/	.	4ff\	.	2E-\	2E-\	.	.	.	.	.
.	.	.	.	.	4g/)	.	4ee-\)	.	.	.	.	.	.	.	4g\)	.	.	4ee-\)	.	.	.	4ee-\	.	4gg\	.	.	.	.	.	.	.	.
2EE-/	3 1	.	2B-/	.	2g/	.	2ee-\	.	.	.	.	.	.	.	2g\	-bis	.	2ee-\	-bis	.	.	2ee-\	.	2gg\	.	2EE-/	2EE-/	.	.	.	.	.
!	!	!	!	!	!	!	!	!	!	!	!	!	!	!	!	!	!	!LO:LB:g=original	!	!	!	!	!	!	!	!	!	!	!	!	!	!
2r	.	.	2r	.	2r	.	2r	.	.	.	.	.	.	.	2r	.	.	2r	.	.	.	2r	.	2r	.	2r	2r	.	.	.	.	.
*	*	*	*	*	*	*	*	*	*	*	*	*	*	*	*	*Xij	*	*	*	*	*	*	*	*	*	*	*	*	*	*	*	*
=41	=41	=41	=41	=41	=41	=41	=41	=41	=41	=41	=41	=41	=41	=41	=41	=41	=41	=41	=41	=41	=41	=41	=41	=41	=41	=41	=41	=41	=41	=41	=41	=41
2r	.	.	2r	.	2r	.	2r	.	4.B-\	Et-	.	4.B-\	et-	.	2r	.	.	2r	.	.	1.ryy	2r	.	2r	.	2r	2r	.	00.r	.	00.r	.
.	.	.	.	.	.	.	.	.	8E-\	-i-	.	8E-/	-i-	.	.	.	.	.	.	.	.	.	.	.	.	.	.	.	.	.	.	.
2r	.	.	2r	.	2r	.	2r	.	2E-\	-am	.	2E-/	-am	.	2r	.	.	2r	.	.	.	2r	.	2r	.	2r	2r	.	.	.	.	.
4r	.	.	4r	.	4r	.	4r	.	2r	.	.	2r	.	.	4r	.	.	4r	.	.	.	4r	.	4r	.	4r	4r	.	.	.	.	.
4G\	5 3	.	4e-\	.	4b-/	.	4dd-X\	.	.	.	.	.	.	.	4b-\	pro	.	4dd-X\	pro	.	.	4e-/	.	4ee-\	.	4GG/	4GG/	.	.	.	.	.
=42	=42	=42	=42	=42	=42	=42	=42	=42	=42	=42	=42	=42	=42	=42	=42	=42	=42	=42	=42	=42	=42	=42	=42	=42	=42	=42	=42	=42	=42	=42	=42	=42
!	!	!	!	!	!	!	!	!	!LO:TX:a:t=i	!	!	!LO:TX:a:t=1	!	!	!	!	!	!	!	!	!	!	!	!	!	!	!	!	!	!	!	!
2A-\	4 2	.	2e-\	.	2b-/	.	2dd-\	.	1.r	.	.	1.r	.	.	2b-\	no-	.	2dd-\	no-	.	1.ryy	2e-/	.	2ee-\	.	2AA-/	2AA-/	.	.	.	.	.
2AA-/	3 1	.	2e-\	.	2a-/	.	2cc\	.	.	.	.	.	.	.	2a-\	-bis	.	2cc\	-bis	.	.	2e-/	.	2ee-\	.	2AA-/	2AA-/	.	.	.	.	.
2r	.	.	2r	.	2r	.	2r	.	.	.	.	.	.	.	2r	.	.	2r	.	.	.	2r	.	2r	.	2r	2r	.	.	.	.	.
=43	=43	=43	=43	=43	=43	=43	=43	=43	=43	=43	=43	=43	=43	=43	=43	=43	=43	=43	=43	=43	=43	=43	=43	=43	=43	=43	=43	=43	=43	=43	=43	=43
*	*	*	*	*	*	*	*	*	*	*ij	*	*	*ij	*	*	*	*	*	*	*	*	*	*	*	*	*	*	*	*	*	*	*
!LO:LB:g=original	!	!	!	!	!	!	!	!	!	!	!	!	!	!	!	!	!	!	!	!	!	!	!	!	!	!	!	!	!	!	!	!
2r	.	.	2r	.	2r	.	2r	.	4.c\	Et-	.	4.c\	e-	.	2r	.	.	2r	.	.	1.ryy	2r	.	2r	.	2r	2r	.	.	.	.	.
.	.	.	.	.	.	.	.	.	8F\	-i-	.	8F/	-ti-	.	.	.	.	.	.	.	.	.	.	.	.	.	.	.	.	.	.	.
2r	.	.	2r	.	2r	.	2r	.	2F\	-am	.	2F/	-am	.	2r	.	.	2r	.	.	.	2r	.	2r	.	2r	2r	.	.	.	.	.
!	!	!	!	!	!	!	!	!	!	!	!	!	!	!	!LO:LB:g=original	!	!	!	!	!	!	!	!	!	!	!	!	!	!	!	!	!
4r	.	.	4r	.	4r	.	4r	.	2r	.	.	2r	.	.	4r	.	.	4r	.	.	.	4r	.	4r	.	4r	4r	.	.	.	.	.
4An\	.	.	4f\	.	4cc\	.	4ee-\	.	.	.	.	.	.	.	4cc\	pro	.	4ee-\	pro	.	.	4ff\	.	4ee-\	.	4AAn/	4AAn/	.	.	.	.	.
=44	=44	=44	=44	=44	=44	=44	=44	=44	=44	=44	=44	=44	=44	=44	=44	=44	=44	=44	=44	=44	=44	=44	=44	=44	=44	=44	=44	=44	=44	=44	=44	=44
!	!	!	!	!	!	!	!	!	!LO:TX:a:t=i	!	!	!LO:TX:a:t=1	!	!	!	!	!	!	!	!	!	!	!	!	!	!	!	!	!	!	!	!
2B-\	4 2	.	2f\	.	2cc\	.	2ee-\	.	1.r	.	.	1.r	.	.	2cc\	no-	.	2ee-\	no-	.	1.ryy	2ff\	.	2ff\	.	2BB-/	2BB-/	.	.	.	.	.
2BB-/	3 1	.	2f\	.	2b-\	.	2ddn\	.	.	.	.	.	.	.	2b-\	-bis	.	2ddn\	-bis	.	.	2b-/	.	2ff\	.	2BBB-/	2BBB-/	.	.	.	.	.
2r	.	.	2r	.	2r	.	2r	.	.	.	.	.	.	.	2r	.	.	2r	.	.	.	2r	.	2r	.	2r	2r	.	.	.	.	.
=45	=45	=45	=45	=45	=45	=45	=45	=45	=45	=45	=45	=45	=45	=45	=45	=45	=45	=45	=45	=45	=45	=45	=45	=45	=45	=45	=45	=45	=45	=45	=45	=45
!	!	!	!LO:LB:g=original	!	!	!	!	!	!	!	!	!	!	!	!	!	!	!	!	!	!	!	!	!LO:LB:g=original	!	!	!	!	!	!	!	!
2r	.	.	2r	.	2r	.	2r	.	4.B-\	E-	.	4.B-\	e-	.	2r	.	.	2r	.	.	1.ryy	2r	.	2r	.	2r	2r	.	00.r	.	00.r	.
.	.	.	.	.	.	.	.	.	8BB-/	-ti-	.	8BB-/	-ti-	.	.	.	.	.	.	.	.	.	.	.	.	.	.	.	.	.	.	.
2r	.	.	2r	.	2r	.	2r	.	2BB-/	-am	.	2BB-/	-am	.	2r	.	.	2r	.	.	.	2r	.	2r	.	2r	2r	.	.	.	.	.
4r	.	.	4r	.	4r	.	4r	.	2r	.	.	2r	.	.	4r	.	.	4r	.	.	.	4r	.	4r	.	4r	4r	.	.	.	.	.
!	!	!	!	!	!	!	!LO:SIC:v:s=4ddn\	!	!	!	!	!	!	!	!	!	!	!	!	!	!	!	!	!	!	!	!	!	!	!	!	!
4A-\	x 4	.	4b-\	.	4f/	.	4dd-\	.	.	.	.	.	.	.	4f\	pro	.	4ddn\	pro	.	.	4B-/	.	4b-/	.	4ryy	4ryy	.	.	.	.	.
=46	=46	=46	=46	=46	=46	=46	=46	=46	=46	=46	=46	=46	=46	=46	=46	=46	=46	=46	=46	=46	=46	=46	=46	=46	=46	=46	=46	=46	=46	=46	=46	=46
!	!	!	!	!	!	!	!	!	!LO:TX:a:t=i	!	!	!LO:TX:a:t=1	!	!	!	!	!	!	!	!	!	!	!	!	!	!LO:LB:g=original	!LO:LB:g=original	!	!	!	!	!
2G\	x 6	.	2b-\	.	2g/	.	2ee-\	.	1.r	.	.	1.r	.	.	2g\	no-	.	(2ee-\	no-	.	1.ryy	2B-/	.	1b-	.	2G\	2G\	.	.	.	.	.
2F\	x 3	.	2b-\	.	2ddn\	.	2aa-\	.	.	.	.	.	.	.	2a-\	.	.	2ff\	.	.	.	2B-/	.	.	.	2F\	2F\	.	.	.	.	.
2E-\	x 3	.	2b-\	.	2ee-\	.	2gg\	.	.	.	.	.	.	.	2g\	.	.	2ee-\)	.	.	.	2B-/	.	2b-/	.	2E-\	2E-\	.	.	.	.	.
=47	=47	=47	=47	=47	=47	=47	=47	=47	=47	=47	=47	=47	=47	=47	=47	=47	=47	=47	=47	=47	=47	=47	=47	=47	=47	=47	=47	=47	=47	=47	=47	=47
!	!	!	!	!	!	!	!	!	!	!	!	!	!	!	!	!	!	!LO:SIC:v:s=2ddn\	!	!	!	!	!	!	!	!	!	!	!	!	!	!
2BB-/	x 3	.	2b-\	.	2ddn\	.	2ff\	.	4.B-\	E-	.	4.B-\	e-	.	2f\	-bis	.	2dd-\	-bis	.	1.ryy	2B-/	.	2b-/	.	2BB-/	2BB-/	.	.	.	.	.
.	.	.	.	.	.	.	.	.	8BB-/	-ti-	.	8BB-/	-ti-	.	.	.	.	.	.	.	.	.	.	.	.	.	.	.	.	.	.	.
2r	.	.	2r	.	2r	.	2r	.	2BB-/	-am	.	2BB-/	-am	.	2r	.	.	2r	.	.	.	2r	.	2r	.	2r	2r	.	.	.	.	.
4r	.	.	4r	.	4r	.	4r	.	2r	.	.	2r	.	.	4r	.	.	4r	.	.	.	2r	.	2r	.	4r	4r	.	.	.	.	.
!	!	!	!	!	!	!	!LO:SIC:v:s=4ddn\	!	!	!	!	!	!	!	!	!	!	!	!	!	!	!	!	!	!	!	!	!	!	!	!	!
4A-\	x 4	.	4b-\	.	4f/	.	4dd-\	.	.	.	.	.	.	.	4f\	pro	.	4ddn\	pro	.	.	.	.	.	.	4AA-/	4AA-/	.	.	.	.	.
*	*	*	*	*	*	*	*	*	*	*Xij	*	*	*Xij	*	*	*	*	*	*	*	*	*	*	*	*	*	*	*	*	*	*	*
=48	=48	=48	=48	=48	=48	=48	=48	=48	=48	=48	=48	=48	=48	=48	=48	=48	=48	=48	=48	=48	=48	=48	=48	=48	=48	=48	=48	=48	=48	=48	=48	=48
!	!	!	!	!	!LO:LB:g=original	!	!	!	!LO:TX:a:t=2	!	!	!LO:TX:a:t=2	!	!	!	!	!	!	!	!	!	!	!	!	!	!	!	!	!	!	!	!
2G\	.	.	2b-\	.	2g/	.	2ee-\	.	0.r	.	.	0.r	.	.	2g\	no-	.	2ee-\	no-	.	1.ryy	2e-/	.	2ee-\	.	2GG/	2GG/	.	.	.	.	.
!	!	!	!	!	!	!	!	!	!	!	!	!	!	!	!	!	!	!	!	!	!	!LO:LB:g=original	!	!	!	!	!	!	!	!	!	!
2F\	.	.	2b-\	.	2f/	.	2a-/	.	.	.	.	.	.	.	2f\	-bis	.	2a-\	-bis	.	.	2r	.	2r	.	2FF/	2FF/	.	.	.	.	.
!	!	!	!	!	!	!	!	!	!	!	!	!	!	!	!	!	!	!LO:LB:g=original	!	!	!	!	!	!	!	!	!	!	!	!	!	!
2E-\	.	.	2b-\	.	2e-/	.	2g/	.	.	.	.	.	.	.	2e-\	pro	.	2g/	pro	.	.	2ee-\	.	2gg\	.	2EE-/	2EE-/	.	.	.	.	.
=49	=49	=49	=49	=49	=49	=49	=49	=49	=49	=49	=49	=49	=49	=49	=49	=49	=49	=49	=49	=49	=49	=49	=49	=49	=49	=49	=49	=49	=49	=49	=49	=49
2B-\	x 4	.	2b-\	.	2e-/	.	2g/	.	.	.	.	.	.	.	2e-\	no-	.	2g/	no-	.	1.ryy	2ee-\	.	2gg\	.	2BB-/	2BB-/	.	00.r	.	00.r	.
2BB-/	x n	.	2b-\	.	2dn/	.	2f/	.	.	.	.	.	.	.	2dn\	-bis	.	2f/	-bis	.	.	2b-/	.	2ff\	.	2BBB-/	2BBB-/	.	.	.	.	.
2r	.	.	2r	.	2r	.	2r	.	.	.	.	.	.	.	2r	.	.	2r	.	.	.	2r	.	2r	.	2r	2r	.	.	.	.	.
=50	=50	=50	=50	=50	=50	=50	=50	=50	=50	=50	=50	=50	=50	=50	=50	=50	=50	=50	=50	=50	=50	=50	=50	=50	=50	=50	=50	=50	=50	=50	=50	=50
!LO:TX:a:t=3	!	!	!LO:TX:a:t=3	!	!LO:TX:a:t=3	!	!LO:TX:a:t=3	!	!	!	!	!LO:LB:g=original	!	!	!LO:TX:a:t=Soli:color=red	!	!LO:DY:b:color=red:t=fort	!	!	!LO:DY:b:color=red:t=mezzo fort	!	!	!	!	!	!	!LO:TX:a:t=3	!	!	!	!	!
0.r	.	.	0.r	.	0.r	.	0.r	.	2.BB-/	E-	.	2.B-\	E-	.	2.f\	Et-	f	2.ddn\	e-	mf	1.ryy	2.B-/	.	2.b-/	.	0.r	0.r	.	.	.	.	.
.	.	.	.	.	.	.	.	.	4BB-/	-ti-	.	4B-\	-ti-	.	4f\	-i-	.	4dd\	-ti-	.	.	4B-/	.	4b-/	.	.	.	.	.	.	.	.
.	.	.	.	.	.	.	.	.	2E-\	-am	.	2B-\	-am	.	2g\	-am	.	2ee-\	-am	.	.	2e-/	.	2b-/	.	.	.	.	.	.	.	.
=51	=51	=51	=51	=51	=51	=51	=51	=51	=51	=51	=51	=51	=51	=51	=51	=51	=51	=51	=51	=51	=51	=51	=51	=51	=51	=51	=51	=51	=51	=51	=51	=51
.	.	.	.	.	.	.	.	.	2A-\	pro	.	2c\	pro	.	2a-\	pro	.	2ff\	pro	.	1.ryy	2r	.	2r	.	.	.	.	.	.	.	.
.	.	.	.	.	.	.	.	.	2B-\	no-	.	1B-	no-	.	2g\	no-	.	(2ee-\	no-	.	.	2B-/	.	2b-/	.	.	.	.	.	.	.	.
!	!	!	!	!	!	!	!	!	!	!	!	!	!	!	!	!	!	!LO:SIC:v:s=2ddn\)	!	!	!	!	!	!	!	!	!	!	!	!	!	!
.	.	.	.	.	.	.	.	.	2BB-/	.	.	.	.	.	2f\	.	.	2dd-\)	.	.	.	2B-/	.	2b-/	.	.	.	.	.	.	.	.
=52	=52	=52	=52	=52	=52	=52	=52	=52	=52	=52	=52	=52	=52	=52	=52	=52	=52	=52	=52	=52	=52	=52	=52	=52	=52	=52	=52	=52	=52	=52	=52	=52
1.r	.	.	1.r	.	1.r	.	1.r	.	1E-	-bis	.	1B-	-bis	.	1g	-bis	.	1ee-	-bis	.	1.ryy	2e-/	.	2b-/	.	1.r	1.r	.	.	.	.	.
.	.	.	.	.	.	.	.	.	.	.	.	.	.	.	.	.	.	.	.	.	.	2r	.	2r	.	.	.	.	.	.	.	.
!	!	!	!	!	!	!	!	!	!	!	!	!	!	!	!LO:PB:g=original	!	!	!	!	!	!	!	!	!	!	!	!	!	!	!	!	!
.	.	.	.	.	.	.	.	.	2r	.	.	2r	.	.	2r	.	.	2r	.	.	.	2r	.	2r	.	.	.	.	.	.	.	.
=53	=53	=53	=53	=53	=53	=53	=53	=53	=53	=53	=53	=53	=53	=53	=53	=53	=53	=53	=53	=53	=53	=53	=53	=53	=53	=53	=53	=53	=53	=53	=53	=53
!	!	!LO:DY:b:color=red:t=mezzo fort:rj	!LO:TX:t=P:problem:mixed beam	!LO:DY:b:color=red:t=mezzo forto	!	!LO:DY:b:color=red:t=mezzoforto	!	!LO:DY:b:color=red:t=mezzoforto	!LO:PB:g=original	!	!LO:DY:b:color=red:t=fort	!	!	!LO:DY:b:color=red:rj	!	!	!	!	!	!	!	!	!	!	!	!	!	!	!	!LO:DY:a:color=red:t=mezze forto	!LO:LB:g=original	!LO:DY:b:color=red:t=mezzo forto
2A-\	x 3	mf	(8c/L	mf	(8cc\L	mf	(8ee-\L	mf	1.A-	Sub	f	1.e-	Sub	f	1.cc	Sub	.	1.ee-	Sub	.	1.ryy	2e-/	.	2ee-\	.	2r	2r	.	1cc	mf	1ee-	mf
.	.	.	8a-\)	.	8a-\)	.	8cc\)	.	.	.	.	.	.	.	.	.	.	.	.	.	.	.	.	.	.	.	.	.	.	.	.	.
.	.	.	8e-\|>	.	8cc\|>	.	8ee-\|>	.	.	.	.	.	.	.	.	.	.	.	.	.	.	.	.	.	.	.	.	.	.	.	.	.
.	.	.	8a-\J|>	.	8e-\J|>	.	8a-X\J|>	.	.	.	.	.	.	.	.	.	.	.	.	.	.	.	.	.	.	.	.	.	.	.	.	.
!	!	!	!LO:TX:t=P:problem:mixed beam	!	!	!	!	!	!	!	!	!	!	!	!	!	!	!	!	!	!	!	!	!	!	!	!	!LO:DY:b:color=red:t=fort	!	!	!	!
2r	.	.	(8c/L	.	(8cc\L	.	(8ee-\L	.	.	.	.	.	.	.	.	.	.	.	.	.	.	2r	.	2r	.	2AA-/	2A-\	f	.	.	.	.
.	.	.	8a-\)	.	8a-\)	.	8cc\)	.	.	.	.	.	.	.	.	.	.	.	.	.	.	.	.	.	.	.	.	.	.	.	.	.
.	.	.	8e-\|>	.	8cc\|>	.	8ee-\|>	.	.	.	.	.	.	.	.	.	.	.	.	.	.	.	.	.	.	.	.	.	.	.	.	.
.	.	.	8a-\J|>	.	8e-\J|>	.	8a-\J|>	.	.	.	.	.	.	.	.	.	.	.	.	.	.	.	.	.	.	.	.	.	.	.	.	.
!	!	!	!LO:TX:t=P:problem:mixed beam	!	!	!	!	!	!	!	!	!	!	!	!	!	!	!	!	!	!	!	!	!	!	!	!	!	!	!	!	!
2A-\	.	.	(8c/L	.	(8cc\L	.	(8ee-\L	.	.	.	.	.	.	.	.	.	.	.	.	.	.	2e-/	.	2ee-\	.	2r	2c\	.	2cc\	.	2ee-\	.
.	.	.	8a-\)	.	8a-\)	.	8cc\)	.	.	.	.	.	.	.	.	.	.	.	.	.	.	.	.	.	.	.	.	.	.	.	.	.
.	.	.	8e-\|>	.	8cc\|>	.	8ee-\|>	.	.	.	.	.	.	.	.	.	.	.	.	.	.	.	.	.	.	.	.	.	.	.	.	.
.	.	.	8a-\J|>	.	8e-\J|>	.	8a-\J|>	.	.	.	.	.	.	.	.	.	.	.	.	.	.	.	.	.	.	.	.	.	.	.	.	.
=54	=54	=54	=54	=54	=54	=54	=54	=54	=54	=54	=54	=54	=54	=54	=54	=54	=54	=54	=54	=54	=54	=54	=54	=54	=54	=54	=54	=54	=54	=54	=54	=54
!	!	!	!LO:TX:t=P:problem:mixed beam	!	!	!	!	!	!	!	!	!	!	!	!	!	!	!	!	!	!	!	!	!	!	!	!	!	!	!	!	!
2B-\	4 2	.	(8B-/L	.	(8b-/L	.	(8dd-X\L	.	4B-\	Pon-	.	4e-\	Pon-	.	4cc\	Pon-	.	4ee-\	Pon-	.	1.ryy	2e-/	.	2ee-\	.	2E-\	(4c\	.	(4cc\	.	(4ee-\	.
.	.	.	8g\)	.	8g/)	.	8b-\)	.	.	.	.	.	.	.	.	.	.	.	.	.	.	.	.	.	.	.	.	.	.	.	.	.
.	.	.	8d-X\|>	.	8b-/|<	.	8dd-\|>	.	4E-\	-ti-	.	4e-\	-ti-	.	4b-\	-ti-	.	4dd-X\	-ti-	.	.	.	.	.	.	.	4B-\)	.	4b-\)	.	4dd-X\)	.
.	.	.	8g\J|>	.	8e-/J|<	.	8g\J|>	.	.	.	.	.	.	.	.	.	.	.	.	.	.	.	.	.	.	.	.	.	.	.	.	.
!	!	!	!LO:TX:t=P:problem:mixed beam	!	!	!	!LO:LB:g=original	!	!	!	!	!	!	!	!	!	!	!	!	!	!	!	!	!	!	!	!	!	!	!	!	!
2E-\	x 3	.	(8B-/L	.	(8b-/L	.	(8dd-X\L	.	2E-\	-o	.	2e-\	-o	.	2b-\	-o	.	2dd-\	-o	.	.	2e-/	.	2ee-\	.	2EE-/	2B-\	.	2b-\	.	2dd-\	.
.	.	.	8g\)	.	8g/)	.	8b-\)	.	.	.	.	.	.	.	.	.	.	.	.	.	.	.	.	.	.	.	.	.	.	.	.	.
.	.	.	8d-\|>	.	8b-/|<	.	8dd-\|>	.	.	.	.	.	.	.	.	.	.	.	.	.	.	.	.	.	.	.	.	.	.	.	.	.
.	.	.	8g\J|>	.	8e-/J|<	.	8g\J|>	.	.	.	.	.	.	.	.	.	.	.	.	.	.	.	.	.	.	.	.	.	.	.	.	.
!	!	!	!LO:TX:t=P:problem:mixed beam	!	!	!	!	!	!	!	!	!	!	!	!	!	!	!	!	!	!	!	!	!	!	!	!	!	!	!	!	!
2r	.	.	(8B-/L	.	(8b-/L	.	(8dd-\L	.	2r	.	.	2r	.	.	2r	.	.	2r	.	.	.	2r	.	2r	.	2r	2r	.	2r	.	2r	.
.	.	.	8g\)	.	8g/)	.	8b-\)	.	.	.	.	.	.	.	.	.	.	.	.	.	.	.	.	.	.	.	.	.	.	.	.	.
.	.	.	8d-\|>	.	8b-/|<	.	8dd-\|>	.	.	.	.	.	.	.	.	.	.	.	.	.	.	.	.	.	.	.	.	.	.	.	.	.
.	.	.	8g\J|>	.	8e-/J|<	.	8g\J|>	.	.	.	.	.	.	.	.	.	.	.	.	.	.	.	.	.	.	.	.	.	.	.	.	.
=55	=55	=55	=55	=55	=55	=55	=55	=55	=55	=55	=55	=55	=55	=55	=55	=55	=55	=55	=55	=55	=55	=55	=55	=55	=55	=55	=55	=55	=55	=55	=55	=55
!LO:LB:g=original	!	!	!LO:TX:t=P:problem:brak taktu	!	!	!	!	!	!	!	!	!	!	!	!	!	!	!	!	!	!	!	!	!	!	!	!	!	!	!	!	!
2E-\	.	.	1.ryy	.	(8b-/L	.	(8dd-\L	.	1.E-	Pi-	.	1.e-	Pi-	.	1.b-	Pi-	.	1.dd-	Pi-	.	1.ryy	2e-/	.	2ee-\	.	2r	2r	.	1b-	.	1dd-X	.
.	.	.	.	.	8g/)	.	8b-\)	.	.	.	.	.	.	.	.	.	.	.	.	.	.	.	.	.	.	.	.	.	.	.	.	.
.	.	.	.	.	8b-/|<	.	8dd-\|>	.	.	.	.	.	.	.	.	.	.	.	.	.	.	.	.	.	.	.	.	.	.	.	.	.
.	.	.	.	.	8e-/J|<	.	8g\J|>	.	.	.	.	.	.	.	.	.	.	.	.	.	.	.	.	.	.	.	.	.	.	.	.	.
2r	.	.	.	.	(8b-/L	.	(8dd-\L	.	.	.	.	.	.	.	.	.	.	.	.	.	.	2r	.	2r	.	2EE-/	2E-\	.	.	.	.	.
.	.	.	.	.	8g/)	.	8b-\)	.	.	.	.	.	.	.	.	.	.	.	.	.	.	.	.	.	.	.	.	.	.	.	.	.
.	.	.	.	.	8b-/|<	.	8dd-\|>	.	.	.	.	.	.	.	.	.	.	.	.	.	.	.	.	.	.	.	.	.	.	.	.	.
.	.	.	.	.	8e-/J|<	.	8g\J|>	.	.	.	.	.	.	.	.	.	.	.	.	.	.	.	.	.	.	.	.	.	.	.	.	.
2E-\	.	.	.	.	(8b-/L	.	(8dd-\L	.	.	.	.	.	.	.	.	.	.	.	.	.	.	2e-/	.	2ee-\	.	2r	2r	.	2b-\	.	2dd-\	.
.	.	.	.	.	8g/)	.	8b-\)	.	.	.	.	.	.	.	.	.	.	.	.	.	.	.	.	.	.	.	.	.	.	.	.	.
.	.	.	.	.	8b-/|<	.	8dd-\|>	.	.	.	.	.	.	.	.	.	.	.	.	.	.	.	.	.	.	.	.	.	.	.	.	.
.	.	.	.	.	8e-/J|<	.	8g\J|>	.	.	.	.	.	.	.	.	.	.	.	.	.	.	.	.	.	.	.	.	.	.	.	.	.
=56	=56	=56	=56	=56	=56	=56	=56	=56	=56	=56	=56	=56	=56	=56	=56	=56	=56	=56	=56	=56	=56	=56	=56	=56	=56	=56	=56	=56	=56	=56	=56	=56
!	!	!	!LO:TX:t=P:problem:mixed beam	!	!	!	!	!	!	!	!	!	!	!	!	!	!	!	!	!	!	!	!	!LO:PB:g=original	!LO:DY:b:color=red:t=fort:rj	!	!	!	!	!	!	!
2A-\	4 2	.	(8A-/L	.	(8a-/L	.	(8cc\L	.	2A-\|>	-la-	.	2e-\	-la-	.	(4b-\	-la-	.	(4dd-\	-la-	.	1.ryy	2e-/	.	2ee-\	f	2AA-/	2A-\	.	(4b-/	.	(4dd-\	.
.	.	.	8e-\)	.	8e-/)	.	8a-\)	.	.	.	.	.	.	.	.	.	.	.	.	.	.	.	.	.	.	.	.	.	.	.	.	.
.	.	.	8c\|>	.	8a-/|<	.	8cc\|>	.	.	.	.	.	.	.	4a-\)	.	.	4cc\)	.	.	.	.	.	.	.	.	.	.	4a-/)	.	4cc\)	.
.	.	.	8e-\J|>	.	8c/J|<	.	8e-\J|>	.	.	.	.	.	.	.	.	.	.	.	.	.	.	.	.	.	.	.	.	.	.	.	.	.
!	!	!	!LO:LB:g=original	!	!	!	!	!	!	!	!	!	!	!	!	!	!	!	!	!	!	!	!	!	!	!	!	!	!	!	!	!
!	!	!	!LO:TX:t=P:problem:mixed beam	!	!	!	!	!	!	!	!	!	!	!	!	!	!	!	!	!	!	!	!	!	!	!	!	!	!	!	!	!
2AA-/	3 1	.	(8A-/L	.	(8a-/L	.	(8cc\L	.	2AA-/|<	-to	.	2e-\	-to	.	2a-\	-to	.	2cc\	-to	.	.	2e-/	.	2ee-\	.	2AA-/	2AA-/	.	2a-/	.	2cc\	.
.	.	.	8e-\)	.	8e-/)	.	8a-\)	.	.	.	.	.	.	.	.	.	.	.	.	.	.	.	.	.	.	.	.	.	.	.	.	.
.	.	.	8c\|>	.	8a-/|<	.	8cc\|>	.	.	.	.	.	.	.	.	.	.	.	.	.	.	.	.	.	.	.	.	.	.	.	.	.
.	.	.	8e-\J|>	.	8c/J|<	.	8e-\J|>	.	.	.	.	.	.	.	.	.	.	.	.	.	.	.	.	.	.	.	.	.	.	.	.	.
!	!	!	!	!	!	!	!	!	!	!	!	!	!	!	!	!	!	!	!	!	!	!	!LO:DY:b:color=red:t=	!	!	!	!	!	!	!	!	!
2r	.	.	2A-/	.	2a-/	.	2cc\|>	.	2r	.	.	2r	.	.	2r	.	.	2r	.	.	.	2r	ff	2r	.	2r	2r	.	2r	.	2r	.
=57	=57	=57	=57	=57	=57	=57	=57	=57	=57	=57	=57	=57	=57	=57	=57	=57	=57	=57	=57	=57	=57	=57	=57	=57	=57	=57	=57	=57	=57	=57	=57	=57
!	!	!LO:DY:b:color=red:rj	!	!LO:DY:b:color=red:t=for:rj	!LO:LB:g=original	!LO:DY:a:color=red:t=forto	!	!LO:DY:b:color=red:t=for:rj	!	!	!LO:DY:b:color=red:rj	!	!	!LO:DY:b:color=red:rj	!	!	!LO:DY:b:color=red:rj	!	!	!LO:DY:b:color=red:t=fort	!	!	!	!	!	!	!	!LO:DY:b:color=red	!	!LO:DY:b:color=red:t=for:rj	!	!LO:DY:b:color=red:rj
2G-X\	4 2	f	2g-X\	f	2a-/	f	2cc\|>	f	2G-X\|>	Paſ-	ff	2e-\|>	Paſ-	f	2a-\|>	Paſ-	ff	2cc\	Paſ-	f	1.ryy	2e-/	.	1.ryy	.	2GG-X/|<	2G-X\|>	ff	2a-/|<	f	2cc\|>	ff
2G-\	_ _	.	2g-\	.	2a-/	.	2cc\|>	.	2G-\|>	-sus	.	2e-\|>	-sus	.	2a-\|>	-sus	.	2cc\	-sus	.	.	2e-/	.	.	.	2GG-/|<	2G-\|>	.	2a-/|<	.	2cc\|>	.
2r	x x	.	2r	.	4r	.	4r	.	2r	.	.	2r	.	.	2r	.	.	2ryy	.	.	.	2r	.	.	.	2r	2r	.	2r	.	2r	.
!	!	!	!	!	!	!LO:DY:b:color=red:t=pia	!	!LO:DY:b:color=red:t=pia	!	!	!	!	!	!	!	!	!	!	!	!	!	!	!	!	!	!	!	!	!	!	!	!
.	.	.	.	.	4g-X/	p	4cc\|>	p	.	.	.	.	.	.	.	.	.	.	.	.	.	.	.	.	.	.	.	.	.	.	.	.
=58	=58	=58	=58	=58	=58	=58	=58	=58	=58	=58	=58	=58	=58	=58	=58	=58	=58	=58	=58	=58	=58	=58	=58	=58	=58	=58	=58	=58	=58	=58	=58	=58
!	!	!	!	!	!	!	!	!	!	!	!	!	!	!	!	!	!	!LO:LB:g=original	!	!	!	!	!	!	!	!LO:LB:g=original	!LO:LB:g=original	!	!	!	!	!
!LO:TX:a:t=2	!	!	!LO:TX:a:t=2	!	!	!	!	!	!LO:TX:a:t=2	!	!	!LO:TX:a:t=2	!	!	!LO:TX:a:t=2	!	!	!LO:TX:a:t=2	!	!	!	!LO:TX:a:t=2	!	!LO:TX:a:t=2	!	!LO:TX:a:t=2	!LO:TX:a:t=2	!	!LO:TX:a:t=2	!	!LO:TX:a:t=2	!
0.r	.	.	0.r	.	(4f/	.	((4dd-\	.	0.r	.	.	0.r	.	.	0.r	.	.	0.r	.	.	1.ryy	0.r	.	0.r	.	0.r	0.r	.	0.r	.	0.r	.
.	.	.	.	.	4e-/	.	4ee-\	.	.	.	.	.	.	.	.	.	.	.	.	.	.	.	.	.	.	.	.	.	.	.	.	.
.	.	.	.	.	4d-X/	.	4ff\	.	.	.	.	.	.	.	.	.	.	.	.	.	.	.	.	.	.	.	.	.	.	.	.	.
.	.	.	.	.	4c/	.	4gg-X\	.	.	.	.	.	.	.	.	.	.	.	.	.	.	.	.	.	.	.	.	.	.	.	.	.
.	.	.	.	.	4d-/)	.	4ff\))	.	.	.	.	.	.	.	.	.	.	.	.	.	.	.	.	.	.	.	.	.	.	.	.	.
.	.	.	.	.	4e-/|<	.	4cc\|>	.	.	.	.	.	.	.	.	.	.	.	.	.	.	.	.	.	.	.	.	.	.	.	.	.
=59	=59	=59	=59	=59	=59	=59	=59	=59	=59	=59	=59	=59	=59	=59	=59	=59	=59	=59	=59	=59	=59	=59	=59	=59	=59	=59	=59	=59	=59	=59	=59	=59
.	.	.	.	.	2f/|<	.	2dd-\|>	.	.	.	.	.	.	.	.	.	.	.	.	.	1.ryy	.	.	.	.	.	.	.	.	.	.	.
.	.	.	.	.	2f/|<	.	2dd-\|>	.	.	.	.	.	.	.	.	.	.	.	.	.	.	.	.	.	.	.	.	.	.	.	.	.
.	.	.	.	.	2r	.	2r	.	.	.	.	.	.	.	.	.	.	.	.	.	.	.	.	.	.	.	.	.	.	.	.	.
=60	=60	=60	=60	=60	=60	=60	=60	=60	=60	=60	=60	=60	=60	=60	=60	=60	=60	=60	=60	=60	=60	=60	=60	=60	=60	=60	=60	=60	=60	=60	=60	=60
*	*	*	*	*	*	*	*	*	*	*ij	*	*	*ij	*	*	*ij	*	*	*	*	*	*	*	*	*	*	*	*	*	*	*	*
!	!	!LO:DY:b:color=red:rj	!	!LO:DY:b:color=red:t=	!	!LO:DY:b:color=red:t=for:rj	!LO:LB:g=original	!LO:DY:b:color=red:t=fort	!	!	!	!	!	!	!	!	!	!	!	!	!	!	!LO:DY:b:color=red:rj	!	!LO:DY:b:color=red:rj	!	!	!	!	!	!	!
2A-X\	4 2	f	2f\|>	f	2b-\|>	f	2ddn\|>	f	2A-X\|>	Paſ-	.	2f\|>	Paſ-	.	2b-\|>	Paſ-	.	2ddn\	Paſ-	.	1.ryy	2B-/	ff	2b-/	f	2AA-/	2A-\	.	2b-/|<	.	2ddn\|>	.
2A-\	_ _	.	2f\|>	.	2b-\|>	.	2dd\|>	.	2A-\|>	-sus	.	2f\|>	-sus	.	2b-\|>	-sus	.	2dd\	-sus	.	.	2B-/	.	2b-/	.	2AA-/	2A-\	.	2b-/|<	.	2dd\|>	.
!	!	!	!	!	!	!	!	!	!	!	!	!	!	!	!	!	!	!	!	!	!	!LO:LB:g=original	!	!	!	!	!	!	!	!	!	!
2r	x x	.	2r	.	4r	.	4r	.	2r	.	.	2r	.	.	2r	.	.	2r	.	.	.	2r	.	2r	.	2r	2r	.	2r	.	2r	.
!	!	!	!	!	!	!LO:DY:b:color=red:t=pia	!	!LO:DY:b:color=red:t=pia	!	!	!	!	!	!	!	!	!	!	!	!	!	!	!	!	!	!	!	!	!	!	!	!
.	.	.	.	.	4a-/	p	4dd\|>	p	.	.	.	.	.	.	.	.	.	.	.	.	.	.	.	.	.	.	.	.	.	.	.	.
*	*	*	*	*	*	*	*	*	*	*Xij	*	*	*Xij	*	*	*Xij	*	*	*	*	*	*	*	*	*	*	*	*	*	*	*	*
=61	=61	=61	=61	=61	=61	=61	=61	=61	=61	=61	=61	=61	=61	=61	=61	=61	=61	=61	=61	=61	=61	=61	=61	=61	=61	=61	=61	=61	=61	=61	=61	=61
!LO:TX:a:t=2	!	!	!LO:TX:a:t=2	!	!	!	!	!	!LO:TX:a:t=2	!	!	!LO:TX:a:t=2	!	!	!LO:TX:a:t=2	!	!	!LO:TX:a:t=2	!	!	!	!LO:TX:a:t=2	!	!LO:TX:a:t=2	!	!LO:TX:a:t=2	!LO:TX:a:t=2	!	!LO:TX:a:t=2	!	!LO:TX:a:t=2	!
0.r	.	.	0.r	.	4g/	.	(4ee-\	.	0.r	.	.	0.r	.	.	0.r	.	.	0.r	.	.	1.ryy	0.r	.	0.r	.	0.r	0.r	.	0.r	.	0.r	.
.	.	.	.	.	(4f/	.	4ff\	.	.	.	.	.	.	.	.	.	.	.	.	.	.	.	.	.	.	.	.	.	.	.	.	.
.	.	.	.	.	4e-/	.	4ggn\	.	.	.	.	.	.	.	.	.	.	.	.	.	.	.	.	.	.	.	.	.	.	.	.	.
.	.	.	.	.	4dn/	.	4aa-\	.	.	.	.	.	.	.	.	.	.	.	.	.	.	.	.	.	.	.	.	.	.	.	.	.
.	.	.	.	.	4e-/)	.	4ff\)	.	.	.	.	.	.	.	.	.	.	.	.	.	.	.	.	.	.	.	.	.	.	.	.	.
.	.	.	.	.	4f/|<	.	4ddn\|>	.	.	.	.	.	.	.	.	.	.	.	.	.	.	.	.	.	.	.	.	.	.	.	.	.
=62	=62	=62	=62	=62	=62	=62	=62	=62	=62	=62	=62	=62	=62	=62	=62	=62	=62	=62	=62	=62	=62	=62	=62	=62	=62	=62	=62	=62	=62	=62	=62	=62
.	.	.	.	.	2g/|<	.	2ee-\|>	.	.	.	.	.	.	.	.	.	.	.	.	.	1.ryy	.	.	.	.	.	.	.	.	.	.	.
.	.	.	.	.	2g/|<	.	2ee-\|>	.	.	.	.	.	.	.	.	.	.	.	.	.	.	.	.	.	.	.	.	.	.	.	.	.
.	.	.	.	.	2r	.	2r	.	.	.	.	.	.	.	.	.	.	.	.	.	.	.	.	.	.	.	.	.	.	.	.	.
=63	=63	=63	=63	=63	=63	=63	=63	=63	=63	=63	=63	=63	=63	=63	=63	=63	=63	=63	=63	=63	=63	=63	=63	=63	=63	=63	=63	=63	=63	=63	=63	=63
!	!	!	!LO:TX:t=P:problem:mixed beam	!LO:DY:b:color=red:t=m fort	!	!LO:DY:b:color=red:t=mez fort:rj	!	!LO:DY:b:color=red:t=mezzo forto	!LO:TX:b:t=Dolce:color=red	!	!	!LO:TX:b:t=Dolce:color=red	!	!	!LO:TX:b:t=Dolce:color=red	!	!	!	!	!	!	!	!LO:DY:a:color=red:t=	!	!LO:DY:b:color=red:rj	!	!	!	!LO:LB:g=original	!LO:DY:b:color=red	!	!LO:DY:b:color=red
2A-\	5 3	.	(8c/L	mf	(8cc\L	mf	(8ee-\L	mf	1A-	Paſ-	.	1e-	Et	.	1cc	Et	.	1ee-	Et	.	1.ryy	2e-/	mf	2ee-\	mf	2r	2r	.	1cc	f	1ee-	mf
.	.	.	8a-\)	.	8a-\)	.	8cc\)	.	.	.	.	.	.	.	.	.	.	.	.	.	.	.	.	.	.	.	.	.	.	.	.	.
.	.	.	8e-\|>	.	8cc\|>	.	8ee-\|>	.	.	.	.	.	.	.	.	.	.	.	.	.	.	.	.	.	.	.	.	.	.	.	.	.
.	.	.	8a-\J|>	.	8e-\J|>	.	8a-\J|>	.	.	.	.	.	.	.	.	.	.	.	.	.	.	.	.	.	.	.	.	.	.	.	.	.
!	!	!	!LO:TX:t=P:problem:mixed beam	!	!	!	!	!	!	!	!	!	!	!	!	!	!	!	!	!	!	!	!	!	!	!	!	!LO:DY:b:color=red:rj	!	!	!	!
2r	.	.	(8c/L	.	(8cc\L	.	(8ee-\L	.	.	.	.	.	.	.	.	.	.	.	.	.	.	2r	.	2r	.	2AA-/	2A-\	mf	.	.	.	.
.	.	.	8a-\)	.	8a-\)	.	8cc\)	.	.	.	.	.	.	.	.	.	.	.	.	.	.	.	.	.	.	.	.	.	.	.	.	.
.	.	.	8e-\|>	.	8cc\|>	.	8ee-\|>	.	.	.	.	.	.	.	.	.	.	.	.	.	.	.	.	.	.	.	.	.	.	.	.	.
.	.	.	8a-\J|>	.	8e-\J|>	.	8a-\J|>	.	.	.	.	.	.	.	.	.	.	.	.	.	.	.	.	.	.	.	.	.	.	.	.	.
!	!	!	!LO:TX:t=P:problem:mixed beam	!	!	!	!	!	!	!	!	!	!	!	!	!	!	!	!	!	!	!	!	!	!	!	!	!	!	!	!	!
2A-\	.	.	(8c/L	.	(8cc\L	.	(8ee-\L	.	2A-\	-sus	.	2e-\	Se-	.	2cc\	Se-	.	2ee-\	Se-	.	.	2e-/	.	2ee-\	.	2r	2r	.	2cc\	.	2ee-\	.
.	.	.	8a-\)	.	8a-\)	.	8cc\)	.	.	.	.	.	.	.	.	.	.	.	.	.	.	.	.	.	.	.	.	.	.	.	.	.
.	.	.	8e-\|>	.	8cc\|>	.	8ee-\|>	.	.	.	.	.	.	.	.	.	.	.	.	.	.	.	.	.	.	.	.	.	.	.	.	.
.	.	.	8a-\J|>	.	8e-\J|>	.	8a-\J|>	.	.	.	.	.	.	.	.	.	.	.	.	.	.	.	.	.	.	.	.	.	.	.	.	.
=64	=64	=64	=64	=64	=64	=64	=64	=64	=64	=64	=64	=64	=64	=64	=64	=64	=64	=64	=64	=64	=64	=64	=64	=64	=64	=64	=64	=64	=64	=64	=64	=64
!	!	!	!LO:TX:t=P:problem:mixed beam	!	!	!	!	!	!LO:LB:g=original	!	!	!LO:LB:g=original	!	!	!	!	!	!	!	!	!	!	!	!	!	!	!	!	!	!	!	!
2E-\	x 7	.	(8B-/L	.	(8b-\L	.	(8dd-X\L	.	1E-	Et	.	1e-	-pul-	.	1b-	-pul-	.	1dd-X	-pul-	.	1.ryy	2e-/	.	2ee-\	.	2r	2r	.	1b-	.	1dd-X	.
.	.	.	8g\)	.	8g\)	.	8b-\)	.	.	.	.	.	.	.	.	.	.	.	.	.	.	.	.	.	.	.	.	.	.	.	.	.
.	.	.	8d-X\|>	.	8b-\|>	.	8dd-\|>	.	.	.	.	.	.	.	.	.	.	.	.	.	.	.	.	.	.	.	.	.	.	.	.	.
.	.	.	8g\J|>	.	8e-\J|>	.	8g\J|>	.	.	.	.	.	.	.	.	.	.	.	.	.	.	.	.	.	.	.	.	.	.	.	.	.
!	!	!	!LO:TX:t=P:problem:mixed beam	!	!	!	!	!	!	!	!	!	!	!	!	!	!	!	!	!	!	!	!	!	!	!	!	!	!	!	!	!
2r	.	.	(8B-/L	.	(8b-\L	.	(8dd-\L	.	.	.	.	.	.	.	.	.	.	.	.	.	.	2e-/	.	2ee-\	.	2EE-/	2E-\	.	.	.	.	.
.	.	.	8g\)	.	8g\)	.	8b-\)	.	.	.	.	.	.	.	.	.	.	.	.	.	.	.	.	.	.	.	.	.	.	.	.	.
.	.	.	8d-\|>	.	8b-\|>	.	8dd-\|>	.	.	.	.	.	.	.	.	.	.	.	.	.	.	.	.	.	.	.	.	.	.	.	.	.
.	.	.	8g\J|>	.	8e-\J|>	.	8g\J|>	.	.	.	.	.	.	.	.	.	.	.	.	.	.	.	.	.	.	.	.	.	.	.	.	.
!	!	!	!LO:TX:t=P:problem:mixed beam	!	!LO:LB:g=original	!	!	!	!	!	!	!	!	!	!	!	!	!	!	!	!	!	!	!	!	!	!	!	!	!	!	!
2E-\	x _	.	(8B-/L	.	(8b-\L	.	(8dd-\L	.	2E-\	Se-	.	2e-\	-tus	.	2b-\	-tus	.	2dd-\	-tus	.	.	2r	.	2r	.	2r	2r	.	2b-/	.	2dd-\	.
.	x x	.	8g\)	.	8g\)	.	8b-\)	.	.	.	.	.	.	.	.	.	.	.	.	.	.	.	.	.	.	.	.	.	.	.	.	.
.	.	.	8d-\|>	.	8b-\|>	.	8dd-\|>	.	.	.	.	.	.	.	.	.	.	.	.	.	.	.	.	.	.	.	.	.	.	.	.	.
.	.	.	8g\J|>	.	8e-\J|>	.	8g\J|>	.	.	.	.	.	.	.	.	.	.	.	.	.	.	.	.	.	.	.	.	.	.	.	.	.
=65	=65	=65	=65	=65	=65	=65	=65	=65	=65	=65	=65	=65	=65	=65	=65	=65	=65	=65	=65	=65	=65	=65	=65	=65	=65	=65	=65	=65	=65	=65	=65	=65
!	!	!	!	!	!	!	!LO:LB:g=original	!	!	!	!	!	!	!	!LO:LB:g=original	!	!	!	!	!	!	!LO:TX:a:t=3	!	!	!	!	!	!	!	!	!	!
2A-\	x 3	.	4c\	.	8r	.	8r	.	(2A-\	-pul-	.	2e-\	Se-	.	2a-\	Se-	.	2cc\	Se-	.	1.ryy	0.r	.	0.r	.	2A-\	2A-\	.	2a-/	.	2cc\	.
.	.	.	.	.	8c/L|<	.	8a-\L|>	.	.	.	.	.	.	.	.	.	.	.	.	.	.	.	.	.	.	.	.	.	.	.	.	.
.	.	.	4r	.	(8e-/	.	(8cc\	.	.	.	.	.	.	.	.	.	.	.	.	.	.	.	.	.	.	.	.	.	.	.	.	.
.	.	.	.	.	8c/J)	.	8a-\J)	.	.	.	.	.	.	.	.	.	.	.	.	.	.	.	.	.	.	.	.	.	.	.	.	.
2D-\	.	.	4f\	.	8r	.	8r	.	2D-\)	.	.	2f\	-pul-	.	2b-\	-pul-	.	2dd-\	-pul-	.	.	.	.	.	.	2D-\	2D-\	.	2b-/	.	2dd-\	.
.	.	.	.	.	8d-X/L|<	.	8b-\L|>	.	.	.	.	.	.	.	.	.	.	.	.	.	.	.	.	.	.	.	.	.	.	.	.	.
.	.	.	4r	.	(8f/	.	(8dd-\	.	.	.	.	.	.	.	.	.	.	.	.	.	.	.	.	.	.	.	.	.	.	.	.	.
.	.	.	.	.	8d-/J)	.	8b-\J)	.	.	.	.	.	.	.	.	.	.	.	.	.	.	.	.	.	.	.	.	.	.	.	.	.
2E-\	.	.	4e-\	.	8r	.	8r	.	2E-\	-tus	.	2e-\	-tus	.	2g\	-tus	.	2b-\	-tus	.	.	.	.	.	.	2E-\	2E-\	.	2g/	.	2b-\	.
.	.	.	.	.	8B-/L|<	.	8g/L	.	.	.	.	.	.	.	.	.	.	.	.	.	.	.	.	.	.	.	.	.	.	.	.	.
.	.	.	4r	.	(8d-/	.	(8b-/	.	.	.	.	.	.	.	.	.	.	.	.	.	.	.	.	.	.	.	.	.	.	.	.	.
.	.	.	.	.	8B-/J)	.	8g/J)	.	.	.	.	.	.	.	.	.	.	.	.	.	.	.	.	.	.	.	.	.	.	.	.	.
=66	=66	=66	=66	=66	=66	=66	=66	=66	=66	=66	=66	=66	=66	=66	=66	=66	=66	=66	=66	=66	=66	=66	=66	=66	=66	=66	=66	=66	=66	=66	=66	=66
.	.	.	.	.	.	.	4qqb-/	.	.	.	.	.	.	.	.	.	.	.	.	.	.	.	.	.	.	.	.	.	8qqb-/	.	8qqb-/	.
2A-\	x 3	.	2e-\	.	2c/	.	2a-/	.	2A-\	est	.	2e-\	est	.	2a-\	est	.	2a-\	est	.	1.ryy	.	.	.	.	2AA-/	2AA-/	.	2a-/	.	2a-/	.
!	!	!	!	!LO:DY:b:color=red:t=	!	!	!	!	!	!	!	!	!	!	!	!	!	!	!	!	!	!	!	!	!	!	!	!	!	!	!	!
2r	.	.	2r	pp	2r	.	2r	.	2r	.	.	2r	.	.	2r	.	.	2r	.	.	.	.	.	.	.	2r	2r	.	2r	.	2r	.
!LO:TX:b:t=Pedal	!	!	!	!	!	!	!	!	!	!	!	!	!	!	!	!	!	!	!	!	!	!	!	!	!	!	!	!	!	!	!	!
!	!	!LO:DY:b:color=red:rj	!	!	!	!LO:DY:a:color=red:rj	!	!LO:DY:b:color=red:rj	!	!	!	!	!	!	!	!	!	!	!	!	!	!	!	!	!	!	!	!LO:DY:b:color=red	!	!LO:DY:b:color=red	!	!LO:DY:b:color=red
2A-\|>	.	pp	2e-\	.	2c/	pp	2a-/	pp	2r	.	.	2r	.	.	2r	.	.	2r	.	.	.	.	.	.	.	2AA-/	2E-\	pp	2a-/	pp	2cc\	pp
=67	=67	=67	=67	=67	=67	=67	=67	=67	=67	=67	=67	=67	=67	=67	=67	=67	=67	=67	=67	=67	=67	=67	=67	=67	=67	=67	=67	=67	=67	=67	=67	=67
!	!	!	!LO:LB:g=original	!	!	!	!	!	!LO:TX:a:t=1	!	!	!LO:TX:a:t=1	!	!	!	!	!	!LO:TX:a:t=1	!	!	!	!	!	!	!	!	!	!	!	!	!	!
2A-\|>	.	.	2e-\	.	2c/	.	2a-/	.	1.r	.	.	1.r	.	.	1.r	.	.	1.r	.	.	1.ryy	1.r	.	1.r	.	2AA-/	2E-\	.	2a-/	.	2cc\	.
2r	.	.	2r	.	2r	.	2r	.	.	.	.	.	.	.	.	.	.	.	.	.	.	.	.	.	.	1r	1r	.	2r	.	1r	.
2r	.	.	2r	.	2r	.	2r	.	.	.	.	.	.	.	.	.	.	.	.	.	.	.	.	.	.	.	.	.	2r	.	.	.
!	!	!	!	!	!	!	!	!	!	!	!	!LO:TX:b:t=Verte Cito	!	!	!	!	!	!	!	!	!	!	!	!	!	!	!	!	!LO:TX:b:t=E<. .....>rexit Verte	!	!LO:TX:b:t=Verte Et Res	!
==	==	==	==	==	==	==	==	==	==	==	==	==	==	==	==	==	==	==	==	==	==	==	==	==	==	==	==	==	==	==	==	==
*-	*-	*-	*-	*-	*-	*-	*-	*-	*-	*-	*-	*-	*-	*-	*-	*-	*-	*-	*-	*-	*-	*-	*-	*-	*-	*-	*-	*-	*-	*-	*-	*-
!!!system-decoration: [(g1){(g2)}][(g3)](s7)[(g4)][(g5)](s15)
!!!RDF**kern: | = vertical stroke
!!!RDF**kern: > = above
!!!RDF**kern: < = below
!!!ENC: Berenika Jozajtis
!!!END: 2020-11-02
!!!ENC: Krzysztof Stępień
!!!END: 2022-05-26
!!!YEC: Copyright 2022 Narodowy Instytut Fryderyka Chopina (https://polishscores.org)
!!!YEM: License CC-BY-4.0 (https://creativecommons.org/licenses/by/4.0)
